ianabraham21/robotLibrary/test1.csv
time,shoulder_pan_joint,shoulder_lift_joint,elbow_joint,wrist_1_joint,wrist_2_joint,wrist_3_joint
0.0,-0.0026337399999999999,-0.0084587099999999995,-0.0051140600000000001,-0.0051788700000000003,0.00351958,0.0092415799999999992
0.10000000000000001,-0.24705260366538134,140.23072478397791,-293.86764186844238,150.94026613861411,-0.24566684315373963,1.1258596139961021
0.20000000000000001,-0.59010221995055745,139.47119591389267,-292.97339370798369,151.83143387888782,0.5324141750372523,0.081739373272330162
0.30000000000000004,-0.86240852061350126,139.32828716956399,-293.0369050599615,150.46000433509576,0.096242095915909043,1.7519815915513575
0.40000000000000002,-1.0953138613928213,139.257079461274,-292.64568403113947,151.64232844260073,1.0853908022578973,0.17930987015718047
0.5,-1.2845947217703901,139.14265298342599,-293.06911542120406,151.00698310125762,0.33525406056414919,1.4607871127489842
0.60000000000000009,-1.4440967695374058,138.8013681979912,-292.56591916117571,150.07997983826169,1.4245956836271787,2.137236097922278
0.70000000000000007,-1.5635692227595015,138.61810157339912,-292.45570391771241,150.69467202241077,1.3935430721609603,1.5185109959587102
0.80000000000000004,-1.6318471760971347,138.37537104449652,-292.79147713920287,151.27003094993668,1.6318432713061488,1.5712582614827355
0.90000000000000002,-1.6777442439349426,138.27423213232311,-292.80275754248794,151.38692018194482,1.6777427494501072,1.5705902023869993
1.0,-1.719550074603033,138.21381623520654,-292.77060825898263,151.41519931359403,1.7195500758882869,1.5707957980553318
1.1000000000000001,-1.7441193298097075,138.1907813416735,-292.74737936331138,151.41500531124746,1.7441193310949612,1.5707957966493751
1.2000000000000002,-1.7648349655742361,138.17620582220653,-292.72854781321968,151.41074928041672,1.7648349668594896,1.570795795454816
1.3,-1.7827462987900118,138.16685078754281,-292.712946956005,151.40450345766507,1.782746300075265,1.5707957944142228
1.4000000000000001,-1.7985365266915081,138.16092118117928,-292.69980673514897,151.3972928429782,1.7985365279767613,1.5707957934902297
1.5,-1.81267666167151,138.15734322722281,-292.68858579704215,151.38964985863973,1.8126766629567632,1.5707957926570484
1.6000000000000001,-1.8255036944079335,138.15543847522446,-292.67889203698718,151.38186085040084,1.8255036956931867,1.5707957918961928
1.7000000000000002,-1.8372654048517509,138.15475942164545,-292.67043534478984,151.37408321160558,1.8372654061370042,1.5707957911940407
1.8,-1.8481479456208534,138.15500013181332,-292.66299710666368,151.36640426313937,1.8481479469061064,1.5707957905403367
1.9000000000000001,-1.858293664988597,138.1559448452112,-292.65640978339201,151.35887222630197,1.8582936662738501,1.5707957899272247
2.0,-1.8678130535858248,138.15743709581784,-292.65054291396945,151.35151310610871,1.8678130548710781,1.5707957893485998
2.1000000000000001,-1.8767929923523778,138.15936048668908,-292.64529334551486,151.34434014662219,1.8767929936376311,1.5707957887996584
2.2000000000000002,-1.8853025890255091,138.16162636302147,-292.64057830466533,151.3373592292827,1.8853025903107623,1.5707957882765802
2.3000000000000003,-1.8933973957015273,138.16416571082189,-292.63633041507234,151.3305719917345,1.8933973969867806,1.5707957877762981
2.4000000000000004,-1.9011225117567061,138.16692371963538,-292.63249407007083,151.32397763776737,1.9011225130419593,1.570795787296327
2.5,-1.9085149020938248,138.16985606626608,-292.6290227633358,151.31757398425194,1.9085149033790783,1.5707957868346367
2.6000000000000001,-1.915605151968935,138.17292633333014,-292.62587710594499,151.31135805964962,1.9156051532541885,1.5707957863895541
2.7000000000000002,-1.9224188100557116,138.17610418908794,-292.62302334110785,151.30532643890939,1.922418811340965,1.5707957859596882
2.8000000000000003,-1.9289774258127137,138.17936408528675,-292.62043222337326,151.29947542483276,1.9289774270979672,1.570795785543873
2.9000000000000004,-1.9352993567287069,138.1826843116354,-292.61807816699985,151.29380114196948,1.9352993580139604,1.5707957851411214
3.0,-1.9414004002386118,138.18604629819421,-292.61593859441524,151.28829958268682,1.9414004015238653,1.57079578475059
3.1000000000000001,-1.9472942906806541,138.18943409152547,-292.61399343416338,151.28296662896645,1.9472942919659075,1.5707957843715508
3.2000000000000002,-1.9529930914834981,138.1928339535412,-292.61222473094665,151.27779806359862,1.9529930927687515,1.5707957840033691
3.3000000000000003,-1.9585075054630632,138.19623404764855,-292.61061633994188,151.27278957835304,1.9585075067483166,1.5707957836454851
3.4000000000000004,-1.9638471207761183,138.1996241875475,-292.60915368459865,151.26793678297921,1.9638471220613718,1.5707957832974007
3.5,-1.9690206061257405,138.20299563148808,-292.60782356234068,151.26323521665091,1.9690206074109937,1.570795782958667
3.6000000000000001,-1.974035865841314,138.20634090998891,-292.60661398649108,151.25868036217258,1.9740358671265672,1.5707957826288768
3.7000000000000002,-1.9789001631891128,138.20965367864966,-292.60551405567247,151.25426766256717,1.978900164474366,1.5707957823076568
3.8000000000000003,-1.9836202185198291,138.21292859022716,-292.60451384414523,151.24999253933822,1.9836202198050823,1.5707957819946619
3.9000000000000004,-1.9882022874942389,138.2161611819111,-292.60360430821527,151.24585041160191,1.9882022887794919,1.570795781689571
4.0,-1.9926522235537927,138.21934777495792,-292.6027772050989,151.24183671531813,1.9926522248390457,1.5707957813920832
4.1000000000000005,-1.9969755279514168,138.22248538468023,-292.60202502157642,151.23794692195452,1.9969755292366698,1.5707957811019153
4.2000000000000002,-2.0011773899795613,138.22557163935724,-292.6013409104678,151.23417655605181,2.0011773912648145,1.5707957808187989
4.2999999999999998,-2.005262719490569,138.22860470701283,-292.60071863348651,151.23052121129965,2.0052627207758222,1.5707957805424795
4.4000000000000004,-2.0092361733704958,138.23158322925826,-292.60015250940887,151.22697656486307,2.009236174655749,1.5707957802727148
4.5,-2.013102177279956,138.23450626155997,-292.59963736677469,151.22353838981533,2.0131021785652092,1.5707957800092736
4.6000000000000005,-2.0168649436974162,138.2373732193976,-292.5991685005348,151.22020256562766,2.0168649449826694,1.5707957797519341
4.7000000000000002,-2.0205284870780589,138.240183829844,-292.59874163220326,151.21696508674123,2.0205284883633121,1.5707957795004841
4.8000000000000007,-2.02409663676413,138.24293808814303,-292.59835287317168,151.21382206930377,2.0240966380493832,1.5707957792547202
4.9000000000000004,-2.0275730481419072,138.24563621889027,-292.59799869091205,151.2107697561917,2.0275730494271604,1.5707957790144471
5.0,-2.0309612124289322,138.24827864144402,-292.59767587784211,151.20780452046438,2.0309612137141855,1.5707957787794773
5.1000000000000005,-2.0342644653872211,138.25086593921202,-292.59738152265987,151.20492286741205,2.0342644666724743,1.5707957785496307
5.2000000000000002,-2.0374859951892561,138.25339883247682,-292.59711298397593,151.20212143536278,2.0374859964745093,1.5707957783247342
5.3000000000000007,-2.0406288496096328,138.25587815443907,-292.59686786608739,151.19939699541297,2.040628850894886,1.5707957781046211
5.4000000000000004,-2.0436959426734767,138.25830483017614,-292.59664399674836,151.19674645023929,2.0436959439587299,1.5707957778891319
5.5,-2.0466900608604517,138.26067985823104,-292.59643940680019,151.1941668321401,2.0466900621457049,1.5707957776781125
5.6000000000000005,-2.0496138689384327,138.26300429456566,-292.59625231153183,151.19165530044242,2.0496138702236859,1.5707957774714152
5.7000000000000002,-2.0524699154821344,138.26527923863114,-292.59608109364609,151.18920913839787,2.0524699167673877,1.5707957772688979
5.8000000000000007,-2.0552606381177307,138.26750582132738,-292.59592428771367,151.18682574967727,2.055260639402984,1.5707957770704239
5.9000000000000004,-2.0579883685239118,138.26968519464211,-292.59578056600265,151.18450265456087,2.057988369809165,1.5707957768758625
6.0,-2.0606553372119625,138.27181852277855,-292.59564872557593,151.18223748590842,2.0606553384972157,1.5707957766850871
6.1000000000000005,-2.0632636781016696,138.27390697459788,-292.59552767655623,151.18002798498136,2.0632636793869228,1.570795776497977
6.2000000000000002,-2.0658154329057785,138.27595171721967,-292.59541643146264,151.17787199717921,2.0658154341910318,1.5707957763144156
6.3000000000000007,-2.0683125553327453,138.27795391063896,-292.59531409552943,151.17576746774114,2.0683125566179985,1.5707957761342912
6.4000000000000004,-2.0707569151155072,138.27991470323298,-292.59521985792361,151.17371243745691,2.0707569164007604,1.570795775957496
6.5,-2.0731503018726634,138.2818352280446,-292.59513298378289,151.17170503842141,2.0731503031579166,1.5707957757839268
6.6000000000000005,-2.0754944288075277,138.28371659974144,-292.59505280700216,151.16974348986176,2.0754944300927809,1.5707957756134845
6.7000000000000002,-2.0777909362499609,138.28555991216123,-292.59497872370093,151.16782609405982,2.0777909375352142,1.5707957754460735
6.8000000000000007,-2.0800413950456438,138.28736623636399,-292.59491018631076,151.16595123238702,2.080041396330897,1.5707957752816022
6.9000000000000004,-2.0822473097972103,138.28913661912131,-292.59484669822496,151.16411736146512,2.0822473110824635,1.5707957751199824
7.0,-2.0844101219616911,138.29087208178092,-292.59478780895944,151.16232300946223,2.0844101232469443,1.5707957749611294
7.1000000000000005,-2.0865312128086733,138.29257361945272,-292.5947331097762,151.16056677253047,2.0865312140939265,1.5707957748049617
7.2000000000000002,-2.088611906243623,138.29424220046835,-292.59468222972646,151.15884731138939,2.0886119075288763,1.570795774651401
7.3000000000000007,-2.0906534715009055,138.29587876607334,-292.59463483207327,151.15716334805643,2.0906534727861588,1.5707957745003718
7.4000000000000004,-2.0926571257110349,138.29748423031549,-292.5945906110577,151.1555136627249,2.0926571269962881,1.5707957743518017
7.5,-2.0946240363467532,138.2990594800979,-292.59454928897583,151.15389709078778,2.0946240376320064,1.5707957742056209
7.6000000000000005,-2.0965553235525176,138.30060537536929,-292.59451061353633,151.15231252000493,2.0965553248377709,1.5707957740617624
7.7000000000000002,-2.0984520623619938,138.30212274942812,-292.59447435547179,151.15075888781047,2.098452063647247,1.5707957739201615
7.8000000000000007,-2.1003152848081297,138.30361240931981,-292.59444030637945,151.14923517875624,2.1003152860933829,1.5707957737807559
7.9000000000000004,-2.102145981930315,138.30507513630931,-292.59440827676872,151.14774042208666,2.1021459832155682,1.5707957736434857
8.0,-2.1039451056830623,138.30651168641401,-292.59437809429579,151.14627368944051,2.1039451069683155,1.5707957735082934
8.0999999999999996,-2.1057135707506069,138.30792279098372,-292.59434960216691,151.14483409267424,2.1057135720358602,1.5707957733751232
8.2000000000000011,-2.1074522562716771,138.30930915731679,-292.59432265769431,151.14342078180167,2.1074522575569303,1.5707957732439217
8.3000000000000007,-2.1091620074785875,138.31067146930243,-292.59429713098939,151.14203294304497,2.1091620087638407,1.5707957731146374
8.4000000000000004,-2.1108436372547081,138.31201038808163,-292.59427290378045,151.14066979699152,2.1108436385399614,1.5707957729872202
8.5,-2.1124979276142315,138.31332655271927,-292.59424986834244,151.13933059685132,2.1124979288994847,1.5707957728616224
8.5999999999999996,-2.1141256311079855,138.31462058088215,-292.59422792652816,151.1380146268103,2.1141256323932387,1.5707957727377977
8.7000000000000011,-2.1157274721589636,138.31589306951767,-292.59420698889068,151.13672120047417,2.1157274734442169,1.5707957726157014
8.8000000000000007,-2.1173041483310628,138.31714459552947,-292.59418697388872,151.13544965939803,2.1173041496163161,1.5707957724952901
8.9000000000000004,-2.1188563315343791,138.3183757164463,-292.59416780716663,151.13419937169741,2.1188563328196319,1.5707957723765225
9.0,-2.1203846691703019,138.31958697108172,-292.5941494209016,151.13296973073591,2.1203846704555547,1.5707957722593584
9.0999999999999996,-2.1218897852194538,138.3207788801823,-292.59413175321214,151.13176015388549,2.1218897865047066,1.5707957721437589
9.2000000000000011,-2.1233722812754516,138.32195194706239,-292.59411474762157,151.1305700813551,2.1233722825607044,1.5707957720296863
9.3000000000000007,-2.1248327375272513,138.32310665822428,-292.59409835257128,151.12939897508386,2.1248327388125041,1.5707957719171046
9.4000000000000004,-2.1262717136927805,138.32424348396253,-292.59408252097927,151.12824631769513,2.1262717149780332,1.5707957718059786
9.5,-2.1276897499063772,138.32536287895175,-292.59406720983924,151.12711161150804,2.12768975119163,1.5707957716962746
9.6000000000000014,-2.1290873675624598,138.32646528281714,-292.59405237985681,151.12599437760295,2.1290873688477125,1.5707957715879595
9.7000000000000011,-2.1304650701177237,138.32755112068767,-292.59403799511892,151.12489415493786,2.1304650714029765,1.5707957714810017
9.8000000000000007,-2.1318233438540326,138.32862080373141,-292.59402402279375,151.12381049951287,2.1318233451392854,1.5707957713753706
9.9000000000000004,-2.1331626586040806,138.32967472967314,-292.59401043285777,151.12274298357966,2.1331626598893334,1.5707957712710363
10.0,-2.1344834684417737,138.33071328329433,-292.59399719784784,151.1216911948936,2.1344834697270265,1.5707957711679701
10.100000000000001,-2.1357862123391964,138.33173683691535,-292.59398429263564,151.12065473600597,2.1357862136244492,1.5707957710661442
10.200000000000001,-2.1370713147919056,138.33274575086065,-292.59397169422266,151.11963322359381,2.1370713160771584,1.5707957709655316
10.300000000000001,-2.1383391864142358,138.33374037390675,-292.59395938155347,151.11862628782518,2.1383391876994886,1.570795770866106
10.4,-2.1395902245061618,138.33472104371344,-292.59394733534594,151.11763357175812,2.1395902257914146,1.5707957707678422
10.5,-2.1408248135932375,138.33568808723905,-292.59393553793672,151.11665473077099,2.1408248148784903,1.5707957706707154
10.600000000000001,-2.1420433259410037,138.33664182113952,-292.59392397314031,151.11568943202229,2.1420433272262565,1.570795770574702
10.700000000000001,-2.1432461220451873,138.33758255215227,-292.59391262612098,151.11473735393889,2.1432461233304401,1.5707957704797788
10.800000000000001,-2.1444335510989734,138.33851057746497,-292.59390148327577,151.11379818573013,2.1444335523842262,1.5707957703859232
10.9,-2.1456059514385313,138.33942618507004,-292.59389053212817,151.11287162692713,2.1456059527237841,1.5707957702931135
11.0,-2.146763650967912,138.34032965410489,-292.59387976123094,151.11195738694516,2.1467636522531648,1.5707957702013284
11.100000000000001,-2.1479069675643934,138.34122125517888,-292.59386916007765,151.11105518466846,2.1479069688496462,1.5707957701105477
11.200000000000001,-2.149036209465272,138.34210125068708,-292.59385871902191,151.1101647480555,2.1490362107505248,1.5707957700207513
11.300000000000001,-2.1501516756370531,138.34296989511162,-292.59384842920372,151.10928581376422,2.1501516769223059,1.5707957699319197
11.4,-2.1512536561279383,138.3438274353108,-292.5938382824823,151.1084181267955,2.1512536574131911,1.570795769844034
11.5,-2.1523424324044642,138.34467411079663,-292.59382827137472,151.10756144015437,2.152342433689717,1.570795769757076
11.600000000000001,-2.1534182776730799,138.34551015400126,-292.59381838899981,151.10671551452759,2.1534182789583327,1.570795769671028
11.700000000000001,-2.1544814571874471,138.34633579053252,-292.59380862902719,151.10588011797682,2.1544814584726999,1.5707957695858725
11.800000000000001,-2.1555322285421501,138.34715123941933,-292.59379898563037,151.10505502564672,2.1555322298274029,1.5707957695015928
11.9,-2.1565708419535277,138.34795671334706,-292.59378945344412,151.1042400194867,2.1565708432387805,1.5707957694181727
12.0,-2.157597540528239,138.34875241888352,-292.59378002752555,151.103434887986,2.1575975418134918,1.5707957693355958
12.100000000000001,-2.1586125605201874,138.34953855669576,-292.59377070331834,151.10263942592127,2.1586125618054401,1.570795769253847
12.200000000000001,-2.159616131576374,138.35031532175825,-292.59376147662022,151.10185343411578,2.1596161328616268,1.5707957691729111
12.300000000000001,-2.1606084769722185,138.35108290355262,-292.59375234355321,151.10107671920986,2.1606084782574713,1.5707957690927732
12.4,-2.1615898138368621,138.35184148625945,-292.59374330053623,151.10030909344195,2.1615898151221149,1.5707957690134191
12.5,-2.1625603533689541,138.3525912489423,-292.59373434426038,151.09955037443945,2.1625603546542069,1.5707957689348351
12.600000000000001,-2.1635203010433504,138.35333236572458,-292.59372547166595,151.0988003850193,2.1635203023286032,1.5707957688570073
12.700000000000001,-2.1644698568091991,138.35406500595911,-292.59371667992161,151.09805895299732,2.1644698580944519,1.5707957687799226
12.800000000000001,-2.165409215279797,138.35478933439131,-292.59370796640536,151.09732591100615,2.1654092165650498,1.5707957687035681
12.9,-2.166338565914617,138.35550551131561,-292.59369932868708,151.09660109632119,2.1663385671998698,1.570795768627931
13.0,-2.1672580931938832,138.35621369272593,-292.59369076451242,151.09588435069421,2.167258094479136,1.5707957685529994
13.100000000000001,-2.1681679767860338,138.35691403046005,-292.59368227178828,151.09517552019429,2.1681679780712866,1.5707957684787612
13.200000000000001,-2.1690683917084117,138.35760667233848,-292.59367384856938,151.09447445505555,2.1690683929936645,1.5707957684052047
13.300000000000001,-2.1699595084814951,138.35829176229794,-292.59366549304582,151.09378100953148,2.1699595097667479,1.5707957683323186
13.4,-2.1708414932769715,138.3589694405195,-292.59365720353208,151.09309504175545,2.1708414945622243,1.5707957682600915
13.5,-2.1717145080599356,138.35963984355189,-292.59364897845654,151.09241641360711,2.1717145093451884,1.5707957681885127
13.600000000000001,-2.1725787107254781,138.36030310443005,-292.59364081635215,151.09174499058446,2.1725787120107309,1.5707957681175719
13.700000000000001,-2.1734342552299211,138.36095935278902,-292.59363271584772,151.09108064168126,2.1734342565151739,1.5707957680472586
13.800000000000001,-2.1742812917169503,138.36160871497376,-292.59362467566001,151.09042323926934,2.1742812930022031,1.5707957679775626
13.9,-2.1751199666388636,138.36225131414437,-292.59361669458656,151.08977265898605,2.1751199679241164,1.5707957679084741
14.0,-2.1759504228731581,138.36288727037774,-292.59360877149885,151.08912877962607,2.1759504241584109,1.5707957678399835
14.100000000000001,-2.1767727998346711,138.36351670076516,-292.59360090533647,151.08849148303764,2.1767728011199239,1.5707957677720814
14.200000000000001,-2.1775872335834547,138.36413971950626,-292.59359309510131,151.08786065402302,2.1775872348687075,1.5707957677047586
14.300000000000001,-2.1783938569285932,138.36475643799955,-292.59358533985255,151.08723618024288,2.178393858213846,1.570795767638006
14.4,-2.1791927995281202,138.36536696492954,-292.5935776387019,151.08661795212447,2.179192800813373,1.5707957675718149
14.5,-2.1799841879852235,138.36597140635067,-292.5935699908095,151.08600586277342,2.1799841892704763,1.5707957675061768
14.600000000000001,-2.1807681459408799,138.36656986576801,-292.59356239537971,151.08539980788905,2.1807681472261327,1.5707957674410833
14.700000000000001,-2.1815447941630923,138.3671624442153,-292.5935548516577,151.08479968568278,2.1815447954483451,1.570795767376526
14.800000000000001,-2.182314250632861,138.36774924032983,-292.59354735892606,151.08420539679989,2.1823142519181138,1.570795767312497
14.9,-2.1830766306270339,138.36833035042488,-292.59353991650181,151.08361684424409,2.1830766319122867,1.5707957672489885
15.0,-2.183832046798166,138.36890586855935,-292.59353252373353,151.08303393330516,2.1838320480834188,1.5707957671859927
15.100000000000001,-2.1845806092515176,138.36947588660496,-292.59352517999895,151.08245657148899,2.1845806105367704,1.5707957671235022
15.200000000000001,-2.1853224256193009,138.37004049431116,-292.59351788470252,151.08188466845067,2.1853224269045537,1.5707957670615096
15.300000000000001,-2.1860576011323034,138.3705997793675,-292.59351063727331,151.08131813592965,2.1860576024175562,1.5707957670000077
15.4,-2.1867862386889838,138.3711538274641,-292.59350343716306,151.08075688768761,2.1867862399742366,1.5707957669389894
15.5,-2.1875084389221562,138.37170272234974,-292.59349628384444,151.08020083944834,2.187508440207409,1.5707957668784478
15.600000000000001,-2.1882243002633448,138.372246545888,-292.59348917680921,151.07964990884008,2.1882243015485976,1.5707957668183763
15.700000000000001,-2.1889339190049251,138.37278537811159,-292.59348211556699,151.07910401533974,2.1889339202901779,1.5707957667587682
15.800000000000001,-2.1896373893601258,138.37331929727455,-292.59347509964363,151.07856308021911,2.1896373906453785,1.5707957666996168
15.9,-2.190334803520976,138.37384837990288,-292.59346812858007,151.0780270264932,2.1903348048062288,1.570795766640916
16.0,-2.191026251714292,138.37437270084328,-292.59346120193129,151.0774957788702,2.1910262529995448,1.5707957665826595
16.100000000000001,-2.1917118222557708,138.37489233331038,-292.59345431926511,151.07696926370326,2.1917118235410236,1.5707957665248413
16.199999999999999,-2.1923916016022744,138.37540734893227,-292.5934474801611,151.07644740894401,2.1923916028875272,1.5707957664674552
16.300000000000001,-2.1930656744023631,138.37591781779446,-292.59344068421007,151.07593014409761,2.1930656756876159,1.5707957664104955
16.400000000000002,-2.1937341235451586,138.37642380848251,-292.5934339310129,151.07541740017945,2.1937341248304114,1.5707957663539562
16.5,-2.1943970302075946,138.37692538812311,-292.59342722017999,151.0749091096732,2.1943970314928474,1.570795766297832
16.600000000000001,-2.1950544739001256,138.37742262242392,-292.59342055133055,151.07440520649041,2.1950544751853784,1.5707957662421173
16.699999999999999,-2.1957065325109357,138.37791557571194,-292.59341392409192,151.07390562593142,2.1957065337961885,1.5707957661868066
16.800000000000001,-2.1963532823487282,138.37840431097078,-292.59340733809904,151.07341030464755,2.196353283633981,1.5707957661318948
16.900000000000002,-2.1969947981841287,138.37888888987666,-292.59340079299398,151.07291918060469,2.1969947994693815,1.5707957660773764
17.0,-2.197631153289771,138.3793693728332,-292.59339428842537,151.07243219304786,2.1976311545750238,1.5707957660232463
17.100000000000001,-2.1982624194790978,138.37984581900508,-292.59338782404814,151.07194928246722,2.1982624207643506,1.5707957659694998
17.199999999999999,-2.198888667143942,138.38031828635079,-292.59338139952291,151.07147039056494,2.1988886684291948,1.5707957659161318
17.300000000000001,-2.1995099652909249,138.38078683165406,-292.59337501451574,151.07099546022337,2.1995099665761777,1.5707957658631375
17.400000000000002,-2.2001263815767134,138.38125151055462,-292.59336866869785,151.070524435474,2.2001263828619662,1.5707957658105121
17.5,-2.2007379823421771,138.3817123775776,-292.59336236174528,151.07005726146767,2.2007379836274299,1.570795765758251
17.600000000000001,-2.2013448326454998,138.38216948616238,-292.59335609333851,151.06959388444551,2.2013448339307526,1.5707957657063496
17.699999999999999,-2.2019469962942635,138.38262288869035,-292.59334986316236,151.06913425171101,2.2019469975795163,1.5707957656548033
17.800000000000001,-2.2025445358765552,138.38307263651177,-292.59334367090571,151.06867831160272,2.202544537161808,1.570795765603608
17.900000000000002,-2.2031375127911259,138.38351877997195,-292.59333751626127,151.06822601346809,2.2031375140763787,1.5707957655527591
18.0,-2.2037259872766399,138.38396136843647,-292.59333139892539,151.06777730763787,2.2037259885618927,1.5707957655022526
18.100000000000001,-2.2043100184400402,138.38440045031575,-292.59332531859798,151.06733214540154,2.2043100197252929,1.5707957654520841
18.199999999999999,-2.2048896642840745,138.38483607308885,-292.59331927498226,151.06689047898323,2.2048896655693273,1.5707957654022497
18.300000000000001,-2.2054649817339871,138.38526828332644,-292.59331326778465,151.06645226151866,2.2054649830192399,1.5707957653527453
18.400000000000002,-2.2060360266634373,138.38569712671324,-292.59330729671456,151.06601744703264,2.2060360279486901,1.5707957653035669
18.5,-2.2066028539196472,138.38612264806969,-292.59330136148446,151.06558599041708,2.2066028552049,1.5707957652547107
18.600000000000001,-2.2071655173478133,138.38654489137295,-292.59329546180953,151.06515784741006,2.2071655186330661,1.5707957652061728
18.699999999999999,-2.2077240698148088,138.38696389977744,-292.59328959740782,151.06473297457524,2.2077240711000616,1.5707957651579494
18.800000000000001,-2.2082785632322004,138.38737971563452,-292.59328376799999,151.06431132928182,2.2082785645174532,1.570795765110037
18.900000000000002,-2.2088290485785995,138.38779238051185,-292.59327797330923,151.06389286968539,2.2088290498638523,1.5707957650624318
19.0,-2.20937557592138,138.38820193521204,-292.59327221306131,151.0634775547091,2.2093755772066328,1.5707957650151303
19.100000000000001,-2.2099181944377664,138.3886084197907,-292.59326648698436,151.06306534402546,2.2099181957230192,1.570795764968129
19.200000000000003,-2.2104569524353335,138.38901187357419,-292.59326079480894,151.0626561980387,2.2104569537205863,1.5707957649214246
19.300000000000001,-2.2109918973719243,138.38941233517662,-292.59325513626794,151.06225007786756,2.210991898657177,1.5707957648750135
19.400000000000002,-2.21152307587501,138.38980984251651,-292.59324951109642,151.0618469453286,2.2115230771602628,1.5707957648288924
19.5,-2.2120505337605101,138.390204432833,-292.59324391903181,151.0614467629201,2.2120505350457629,1.5707957647830582
19.600000000000001,-2.2125743160510862,138.39059614270144,-292.59323835981365,151.06104949380625,2.212574317336339,1.5707957647375075
19.700000000000003,-2.2130944669939363,138.39098500804866,-292.59323283318366,151.06065510180193,2.2130944682791891,1.5707957646922373
19.800000000000001,-2.2136110300780989,138.39137106416786,-292.59322733888564,151.06026355135771,2.2136110313633517,1.5707957646472444
19.900000000000002,-2.2141240480512789,138.39175434573295,-292.59322187666544,151.05987480754564,2.2141240493365317,1.5707957646025257
20.0,-2.2146335629362235,138.39213488681256,-292.59321644627107,151.05948883604501,2.2146335642214763,1.5707957645580781
20.100000000000001,-2.2151396160466494,138.3925127208837,-292.59321104745248,151.05910560312878,2.2151396173319022,1.5707957645138988
20.200000000000003,-2.2156422480027436,138.39288788084502,-292.59320567996173,151.05872507565033,2.2156422492879964,1.5707957644699848
20.300000000000001,-2.2161414987462442,138.3932603990296,-292.59320034355272,151.05834722103054,2.216141500031497,1.5707957644263333
20.400000000000002,-2.2166374075551314,138.39363030721762,-292.59319503798145,151.05797200724516,2.2166374088403842,1.5707957643829416
20.5,-2.217130013057913,138.39399763664846,-292.5931897630058,151.05759940281268,2.2171300143431658,1.5707957643398065
20.600000000000001,-2.2176193532475432,138.39436241803261,-292.59318451838556,151.05722937678249,2.217619354532796,1.5707957642969255
20.700000000000003,-2.2181054654949754,138.39472468156322,-292.59317930388249,151.05686189872316,2.2181054667802282,1.570795764254296
20.800000000000001,-2.2185883865623559,138.39508445692729,-292.5931741192602,151.05649693871123,2.2185883878476087,1.5707957642119152
20.900000000000002,-2.2190681526158764,138.39544177331675,-292.59316896428425,151.05613446732039,2.2190681539011292,1.5707957641697805
21.0,-2.2195447992382951,138.39579665943893,-292.59316383872198,151.05577445561065,2.2195448005235479,1.5707957641278893
21.100000000000001,-2.2200183614411371,138.39614914352708,-292.59315874234267,151.05541687511797,2.2200183627263899,1.5707957640862393
21.200000000000003,-2.2204888736765755,138.39649925335044,-292.5931536749174,151.05506169784428,2.2204888749618283,1.5707957640448278
21.300000000000001,-2.2209563698490169,138.39684701622406,-292.5931486362191,151.05470889624743,2.2209563711342697,1.5707957640036523
21.400000000000002,-2.221420883326386,138.39719245901836,-292.59314362602248,151.05435844323176,2.2214208846116388,1.5707957639627104
21.5,-2.2218824469511333,138.39753560816854,-292.59313864410416,151.05401031213862,2.2218824482363861,1.5707957639219996
21.600000000000001,-2.2223410930509542,138.39787648968363,-292.59313369024255,151.05366447673737,2.222341094336207,1.5707957638815178
21.700000000000003,-2.222796853449251,138.39821512915535,-292.59312876421779,151.05332091121647,2.2227968547345038,1.5707957638412626
21.800000000000001,-2.2232497594753302,138.39855155176681,-292.59312386581189,151.05297959017477,2.223249760760583,1.5707957638012318
21.900000000000002,-2.223699841974343,138.39888578230091,-292.59311899480849,151.05264048861315,2.2236998432595958,1.5707957637614229
22.0,-2.2241471313169869,138.39921784514846,-292.59311415099319,151.05230358192625,2.2241471326022397,1.5707957637218339
22.100000000000001,-2.2245916574089644,138.39954776431631,-292.59310933415321,151.05196884589452,2.2245916586942172,1.5707957636824625
22.200000000000003,-2.225033449700212,138.3998755634351,-292.59310454407762,151.05163625667632,2.2250334509854648,1.5707957636433065
22.300000000000001,-2.2254725371939053,138.4002012657669,-292.59309978055717,151.05130579080034,2.225472538479158,1.5707957636043639
22.400000000000002,-2.2259089484552415,138.40052489421254,-292.59309504338432,151.05097742515827,2.2259089497404942,1.5707957635656327
22.5,-2.2263427116200187,138.400846471319,-292.59309033235331,151.05065113699732,2.2263427129052715,1.5707957635271106
22.600000000000001,-2.2267738544029987,138.40116601928636,-292.59308564726007,151.05032690391337,2.2267738556882515,1.5707957634887957
22.700000000000003,-2.2272024041060798,138.40148355997471,-292.59308098790223,151.05000470384394,2.2272024053913326,1.5707957634506859
22.800000000000001,-2.2276283876262664,138.40179911491089,-292.59307635407913,151.04968451506156,2.2276283889115192,1.5707957634127794
22.900000000000002,-2.2280518314634552,138.40211270529505,-292.59307174559183,151.04936631616707,2.228051832748708,1.5707957633750742
23.0,-2.2284727617280362,138.40242435200707,-292.59306716224302,151.04905008608333,2.228472763013289,1.5707957633375682
23.100000000000001,-2.2288912041483147,138.40273407561276,-292.59306260383704,151.04873580404887,2.2288912054335674,1.5707957633002598
23.200000000000003,-2.2293071840777601,138.40304189636998,-292.59305807018001,151.04842344961187,2.2293071853630129,1.5707957632631468
23.300000000000001,-2.2297207265020864,138.40334783423467,-292.59305356107956,151.04811300262415,2.2297207277873392,1.5707957632262277
23.400000000000002,-2.2301318560461678,138.40365190886646,-292.59304907634504,151.04780444323532,2.2301318573314206,1.5707957631895004
23.5,-2.2305405969807963,138.40395413963464,-292.59304461578739,151.04749775188714,2.2305405982660491,1.5707957631529632
23.600000000000001,-2.2309469732292828,138.40425454562344,-292.5930401792192,151.04719290930788,2.2309469745145356,1.5707957631166143
23.700000000000003,-2.2313510083739043,138.40455314563761,-292.5930357664547,151.04688989650705,2.2313510096591571,1.5707957630804521
23.800000000000001,-2.2317527256622114,138.40484995820762,-292.59303137730973,151.04658869476998,2.2317527269474642,1.5707957630444749
23.900000000000002,-2.2321521480131841,138.40514500159486,-292.59302701160163,151.04628928565265,2.2321521492984369,1.5707957630086808
24.0,-2.2325492980232569,138.40543829379672,-292.59302266914938,151.0459916509767,2.2325492993085096,1.5707957629730682
24.100000000000001,-2.2329441979722024,138.40572985255142,-292.59301834977356,151.04569577282444,2.2329441992574552,1.5707957629376355
24.200000000000003,-2.2333368698288849,138.40601969534293,-292.59301405329632,151.04540163353403,2.2333368711141377,1.570795762902381
24.300000000000001,-2.233727335256888,138.40630783940566,-292.59300977954132,151.04510921569474,2.2337273365421408,1.570795762867303
24.400000000000002,-2.234115615620011,138.406594301729,-292.59300552833378,151.04481850214236,2.2341156169052638,1.5707957628324003
24.5,-2.234501731987653,138.40687909906191,-292.59300129950043,151.04452947595473,2.2345017332729058,1.570795762797671
24.600000000000001,-2.2348857051400706,138.40716224791726,-292.59299709286961,151.04424212044728,2.2348857064253234,1.5707957627631135
24.700000000000003,-2.2352675555735231,138.4074437645761,-292.59299290827107,151.04395641916869,2.2352675568587759,1.5707957627287266
24.800000000000001,-2.2356473035053046,138.40772366509196,-292.5929887455361,151.04367235589675,2.2356473047905574,1.5707957626945084
24.900000000000002,-2.2360249688786697,138.40800196529486,-292.59298460449747,151.04338991463422,2.2360249701639225,1.5707957626604576
25.0,-2.236400571367648,138.40827868079538,-292.59298048498943,151.04310907960476,2.2364005726529008,1.5707957626265727
25.100000000000001,-2.236774130381757,138.40855382698859,-292.59297638684774,151.04282983524905,2.2367741316670098,1.5707957625928524
25.200000000000003,-2.237145665070615,138.4088274190579,-292.59297230990961,151.04255216622087,2.2371456663558678,1.5707957625592952
25.300000000000001,-2.2375151943284513,138.40909947197875,-292.59296825401367,151.04227605738339,2.237515195613704,1.5707957625258995
25.400000000000002,-2.2378827367985257,138.40937000052242,-292.59296421899995,151.04200149380543,2.2378827380837785,1.5707957624926641
25.5,-2.2382483108774478,138.40963901925952,-292.59296020470998,151.04172846075792,2.2382483121627006,1.5707957624595874
25.600000000000001,-2.2386119347194127,138.4099065425635,-292.5929562109867,151.04145694371024,2.2386119360046655,1.5707957624266684
25.700000000000003,-2.2389736262403379,138.41017258461423,-292.59295223767441,151.04118692832694,2.2389736275255907,1.5707957623939055
25.800000000000001,-2.2393334031219245,138.4104371594012,-292.59294828461879,151.04091840046416,2.2393334044071773,1.5707957623612974
25.900000000000002,-2.2396912828156235,138.41070028072693,-292.59294435166697,151.0406513461665,2.2396912841008763,1.5707957623288429
26.0,-2.2400472825465263,138.41096196221019,-292.59294043866743,151.04038575166365,2.2400472838317791,1.5707957622965405
26.100000000000001,-2.2404014193171689,138.41122221728912,-292.59293654546997,151.04012160336731,2.2404014206024216,1.5707957622643891
26.200000000000003,-2.2407537099112655,138.41148105922437,-292.59293267192578,151.03985888786801,2.2407537111965183,1.5707957622323874
26.300000000000001,-2.2411041708973558,138.41173850110209,-292.59292881788735,151.03959759193208,2.2411041721826086,1.5707957622005342
26.400000000000002,-2.2414528186323865,138.41199455583691,-292.59292498320855,151.03933770249876,2.2414528199176393,1.5707957621688282
26.5,-2.2417996692652102,138.41224923617486,-292.59292116774452,151.03907920667714,2.241799670550463,1.5707957621372681
26.600000000000001,-2.2421447387400248,138.4125025546962,-292.59291737135169,151.03882209174344,2.2421447400252776,1.5707957621058528
26.700000000000003,-2.2424880427997311,138.41275452381822,-292.59291359388789,151.03856634513812,2.2424880440849839,1.5707957620745812
26.800000000000001,-2.2428295969892318,138.41300515579795,-292.59290983521208,151.03831195446321,2.2428295982744846,1.5707957620434518
26.900000000000002,-2.24316941665866,138.41325446273484,-292.59290609518462,151.03805890747955,2.2431694179439128,1.5707957620124637
27.0,-2.2435075169665435,138.41350245657338,-292.59290237366702,151.0378071921042,2.2435075182517963,1.5707957619816157
27.100000000000001,-2.2438439128829066,138.41374914910568,-292.59289867052212,151.0375567964079,2.2438439141681594,1.5707957619509068
27.200000000000003,-2.2441786191923105,138.41399455197393,-292.59289498561401,151.03730770861247,2.2441786204775633,1.5707957619203357
27.300000000000001,-2.2445116504968317,138.41423867667294,-292.59289131880792,151.03705991708841,2.2445116517820844,1.5707957618899013
27.400000000000002,-2.2448430212189843,138.41448153455246,-292.59288766997037,151.03681341035244,2.2448430225042371,1.5707957618596027
27.5,-2.2451727456045818,138.41472313681967,-292.59288403896909,151.03656817706511,2.2451727468898346,1.5707957618294386
27.600000000000001,-2.2455008377255448,138.41496349454135,-292.59288042567294,151.03632420602855,2.2455008390107976,1.5707957617994079
27.700000000000003,-2.2458273114826564,138.41520261864625,-292.59287682995205,151.03608148618409,2.2458273127679091,1.5707957617695099
27.800000000000001,-2.2461521806082576,138.41544051992727,-292.59287325167764,151.03584000661004,2.2461521818935104,1.5707957617397432
27.900000000000002,-2.2464754586688969,138.41567720904374,-292.59286969072213,151.03559975651956,2.2464754599541497,1.5707957617101069
28.0,-2.2467971590679245,138.41591269652335,-292.59286614695912,151.03536072525847,2.2467971603531773,1.5707957616805999
28.100000000000001,-2.2471172950480387,138.41614699276448,-292.5928626202633,151.03512290230313,2.2471172963332915,1.5707957616512211
28.200000000000003,-2.247435879693783,138.41638010803814,-292.59285911051052,151.03488627725838,2.2474358809790358,1.5707957616219699
28.300000000000001,-2.2477529259339963,138.41661205248994,-292.59285561757775,151.03465083985557,2.2477529272192491,1.570795761592845
28.400000000000002,-2.248068446544214,138.41684283614217,-292.59285214134309,151.03441657995049,2.2480684478294668,1.5707957615638455
28.5,-2.2483824541490276,138.4170724688957,-292.59284868168567,151.03418348752143,2.2483824554342804,1.5707957615349704
28.600000000000001,-2.2486949612243965,138.41730096053186,-292.59284523848572,151.03395155266733,2.2486949625096493,1.5707957615062187
28.700000000000003,-2.2490059800999154,138.4175283207143,-292.59284181162468,151.03372076560589,2.2490059813851682,1.5707957614775896
28.800000000000001,-2.249315522961044,138.41775455899088,-292.59283840098493,151.03349111667166,2.2493155242462968,1.570795761449082
28.900000000000002,-2.2496236018512907,138.4179796847954,-292.59283500644995,151.0332625963143,2.2496236031365435,1.5707957614206951
29.0,-2.2499302286743572,138.41820370744938,-292.59283162790422,151.03303519509683,2.24993022995961,1.5707957613924279
29.100000000000001,-2.2502354151962445,138.41842663616382,-292.59282826523332,151.03280890369382,2.2502354164814973,1.5707957613642796
29.200000000000003,-2.2505391730473163,138.41864848004084,-292.59282491832386,151.0325837128897,2.2505391743325691,1.5707957613362491
29.300000000000001,-2.2508415137243287,138.41886924807537,-292.59282158706344,151.03235961357717,2.2508415150095815,1.5707957613083359
29.400000000000002,-2.251142448592419,138.41908894915679,-292.59281827134066,151.03213659675546,2.2511424498776718,1.5707957612805388
29.5,-2.2514419888870609,138.41930759207051,-292.59281497104513,151.03191465352879,2.2514419901723137,1.5707957612528569
29.600000000000001,-2.251740145715984,138.41952518549957,-292.59281168606748,151.03169377510471,2.2517401470012368,1.5707957612252896
29.700000000000003,-2.2520369300610561,138.41974173802618,-292.59280841629931,151.03147395279262,2.2520369313463089,1.570795761197836
29.800000000000001,-2.2523323527801309,138.41995725813317,-292.59280516163312,151.03125517800225,2.2523323540653837,1.5707957611704952
29.900000000000002,-2.2526264246088674,138.42017175420554,-292.59280192196252,151.03103744224211,2.2526264258941202,1.5707957611432664
30.0,-2.2529191561625117,138.42038523453195,-292.59279869718188,151.03082073711801,2.2529191574477645,1.5707957611161487
30.100000000000001,-2.2532105579376496,138.42059770730606,-292.59279548718666,151.03060505433169,2.2532105592229024,1.5707957610891414
30.200000000000003,-2.2535006403139244,138.42080918062797,-292.59279229187325,151.0303903856794,2.2535006415991772,1.5707957610622436
30.300000000000001,-2.2537894135557281,138.42101966250564,-292.59278911113887,151.03017672305046,2.2537894148409809,1.5707957610354546
30.400000000000002,-2.2540768878138624,138.42122916085626,-292.59278594488177,151.02996405842589,2.2540768890991152,1.5707957610087735
30.5,-2.2543630731271644,138.42143768350743,-292.59278279300099,151.02975238387717,2.2543630744124172,1.5707957609821996
30.600000000000001,-2.254647979424115,138.42164523819869,-292.5927796553965,151.02954169156473,2.2546479807093678,1.5707957609557321
30.700000000000003,-2.2549316165244053,138.4218518325826,-292.59277653196926,151.0293319737369,2.2549316178096581,1.5707957609293703
30.800000000000001,-2.2552139941404872,138.42205747422616,-292.59277342262095,151.02912322272846,2.25521399542574,1.5707957609031136
30.900000000000002,-2.2554951218790897,138.42226217061196,-292.59277032725424,151.02891543095944,2.2554951231643425,1.5707957608769609
31.0,-2.2557750092427122,138.42246592913938,-292.59276724577268,151.02870859093395,2.255775010527965,1.5707957608509118
31.100000000000001,-2.2560536656310917,138.42266875712588,-292.59276417808053,151.0285026952389,2.2560536669163445,1.5707957608249652
31.200000000000003,-2.2563311003426421,138.42287066180805,-292.59276112408304,151.02829773654287,2.2563311016278949,1.5707957607991208
31.300000000000001,-2.2566073225758738,138.42307165034291,-292.59275808368619,151.02809370759488,2.2566073238611266,1.5707957607733776
31.400000000000002,-2.256882341430781,138.42327172980887,-292.59275505679688,151.02789060122336,2.2568823427160338,1.570795760747735
31.5,-2.2571561659102155,138.42347090720702,-292.59275204332278,151.02768841033492,2.2571561671954683,1.5707957607221923
31.600000000000001,-2.2574288049212274,138.42366918946209,-292.59274904317238,151.0274871279133,2.2574288062064802,1.5707957606967486
31.700000000000003,-2.2577002672763893,138.4238665834236,-292.59274605625495,151.02728674701831,2.2577002685616421,1.5707957606714036
31.800000000000001,-2.2579705616950942,138.42406309586687,-292.59274308248064,151.02708726078473,2.257970562980347,1.5707957606461562
31.900000000000002,-2.2582396968048353,138.4242587334941,-292.5927401217603,151.02688866242121,2.2582396980900881,1.5707957606210061
32.0,-2.2585076811424605,138.42445350293536,-292.59273717400561,151.02669094520937,2.2585076824277133,1.5707957605959524
32.100000000000001,-2.2587745231554077,138.4246474107496,-292.59273423912902,151.02649410250265,2.2587745244406605,1.5707957605709946
32.200000000000003,-2.2590402312029196,138.42484046342565,-292.59273131704367,151.02629812772548,2.2590402324881724,1.5707957605461318
32.300000000000004,-2.2593048135572382,138.42503266738319,-292.59272840766357,151.02610301437213,2.259304814842491,1.5707957605213636
32.399999999999999,-2.2595682784047786,138.42522402897367,-292.59272551090339,151.0259087560058,2.2595682796900314,1.5707957604966893
32.5,-2.2598306338472831,138.42541455448128,-292.59272262667866,151.02571534625784,2.2598306351325359,1.5707957604721083
32.600000000000001,-2.2600918879029583,138.42560425012385,-292.59271975490549,151.02552277882654,2.2600918891882111,1.5707957604476199
32.700000000000003,-2.2603520485075923,138.42579312205379,-292.59271689550081,151.02533104747641,2.2603520497928451,1.5707957604232234
32.800000000000004,-2.2606111235156505,138.4259811763589,-292.59271404838228,151.02514014603727,2.2606111248009033,1.5707957603989184
32.899999999999999,-2.2608691207013605,138.42616841906337,-292.59271121346819,151.02495006840331,2.2608691219866133,1.570795760374704
33.0,-2.2611260477597712,138.42635485612857,-292.59270839067767,151.02476080853222,2.261126049045024,1.57079576035058
33.100000000000001,-2.2613819123078014,138.42654049345384,-292.5927055799304,151.02457236044438,2.2613819135930542,1.5707957603265454
33.200000000000003,-2.2616367218852682,138.42672533687744,-292.59270278114684,151.024384718222,2.261636723170521,1.5707957603025999
33.300000000000004,-2.2618904839558973,138.42690939217727,-292.59269999424816,151.02419787600826,2.2618904852411501,1.5707957602787428
33.399999999999999,-2.2621432059083202,138.42709266507174,-292.59269721915615,151.02401182800659,2.262143207193573,1.5707957602549734
33.5,-2.2623948950570538,138.42727516122056,-292.59269445579326,151.02382656847979,2.2623948963423066,1.5707957602312912
33.600000000000001,-2.2626455586434653,138.42745688622546,-292.59269170408265,151.02364209174922,2.2626455599287181,1.5707957602076956
33.700000000000003,-2.2628952038367203,138.42763784563101,-292.59268896394809,151.0234583921941,2.2628952051219731,1.5707957601841862
33.800000000000004,-2.2631438377347148,138.42781804492537,-292.59268623531409,151.02327546425079,2.2631438390199676,1.5707957601607623
33.899999999999999,-2.2633914673649964,138.42799748954104,-292.59268351810573,151.02309330241187,2.2633914686502492,1.5707957601374234
34.0,-2.2636380996856671,138.42817618485552,-292.59268081224872,151.02291190122554,2.2636381009709199,1.5707957601141689
34.100000000000001,-2.2638837415862745,138.4283541361921,-292.59267811766944,151.0227312552949,2.2638837428715273,1.5707957600909983
34.200000000000003,-2.2641283998886865,138.42853134882057,-292.5926754342949,151.02255135927714,2.2641284011739393,1.5707957600679112
34.300000000000004,-2.264372081347954,138.42870782795788,-292.5926727620527,151.02237220788294,2.2643720826332068,1.570795760044907
34.399999999999999,-2.2646147926531599,138.42888357876885,-292.59267010087103,151.02219379587567,2.2646147939384127,1.5707957600219851
34.5,-2.2648565404282537,138.42905860636679,-292.59266745067879,151.02201611807087,2.2648565417135065,1.5707957599991449
34.600000000000001,-2.2650973312328744,138.42923291581428,-292.59266481140537,151.02183916933541,2.2650973325181272,1.570795759976386
34.700000000000003,-2.2653371715631607,138.42940651212371,-292.5926621829808,151.02166294458692,2.2653371728484135,1.5707957599537079
34.800000000000004,-2.2655760678525478,138.42957940025792,-292.59265956533574,151.02148743879317,2.2655760691378006,1.57079575993111
34.899999999999999,-2.2658140264725519,138.42975158513096,-292.59265695840134,151.02131264697135,2.2658140277578047,1.5707957599085918
35.0,-2.2660510537335439,138.42992307160853,-292.59265436210944,151.02113856418751,2.2660510550187967,1.5707957598861528
35.100000000000001,-2.2662871558855091,138.43009386450873,-292.59265177639236,151.02096518555589,2.2662871571707619,1.5707957598637927
35.200000000000003,-2.2665223391187981,138.43026396860267,-292.59264920118301,151.02079250623834,2.2665223404040509,1.5707957598415108
35.300000000000004,-2.266756609564863,138.43043338861492,-292.59264663641488,151.02062052144373,2.2667566108501158,1.5707957598193065
35.399999999999999,-2.2669899732969863,138.43060212922424,-292.59264408202205,151.02044922642736,2.2669899745822391,1.5707957597971796
35.5,-2.2672224363309939,138.43077019506413,-292.59264153793902,151.02027861649032,2.2672224376162466,1.5707957597751294
35.600000000000001,-2.267454004625963,138.43093759072332,-292.59263900410099,151.02010868697897,2.2674540059112158,1.5707957597531557
35.700000000000003,-2.2676846840849136,138.43110432074641,-292.59263648044356,151.01993943328441,2.2676846853701664,1.5707957597312576
35.800000000000004,-2.2679144805554938,138.43127038963436,-292.59263396690295,151.01977085084187,2.2679144818407466,1.5707957597094351
35.899999999999999,-2.2681433998306537,138.43143580184511,-292.59263146341596,151.01960293513014,2.2681434011159065,1.5707957596876876
36.0,-2.2683714476493066,138.431600561794,-292.59262896991976,151.01943568167113,2.2683714489345594,1.5707957596660145
36.100000000000001,-2.268598629696986,138.43176467385439,-292.59262648635212,151.01926908602923,2.2685986309822388,1.5707957596444153
36.200000000000003,-2.2688249516064869,138.43192814235815,-292.59262401265136,151.01910314381087,2.2688249528917397,1.5707957596228899
36.300000000000004,-2.2690504189585021,138.43209097159615,-292.59262154875626,151.01893785066397,2.2690504202437549,1.5707957596014375
36.399999999999999,-2.2692750372822457,138.43225316581882,-292.59261909460611,151.0187732022774,2.2692750385674985,1.5707957595800579
36.5,-2.2694988120560682,138.43241472923651,-292.59261665014066,151.01860919438059,2.269498813341321,1.5707957595587505
36.600000000000001,-2.2697217487080659,138.43257566602011,-292.59261421530027,151.01844582274293,2.2697217499933187,1.5707957595375148
36.700000000000003,-2.2699438526166769,138.43273598030152,-292.59261179002567,151.01828308317329,2.2699438539019297,1.5707957595163506
36.800000000000004,-2.2701651291112706,138.43289567617401,-292.59260937425807,151.01812097151964,2.2701651303965233,1.5707957594952575
36.899999999999999,-2.270385583472728,138.43305475769284,-292.59260696793928,151.01795948366845,2.2703855847579808,1.5707957594742348
37.0,-2.2706052209340144,138.43321322887562,-292.59260457101146,151.01779861554436,2.2706052222192672,1.5707957594532822
37.100000000000001,-2.2708240466807421,138.4333710937027,-292.59260218341728,151.01763836310965,2.2708240479659949,1.5707957594323994
37.200000000000003,-2.2710420658517276,138.43352835611782,-292.59259980509989,151.01747872236376,2.2710420671369804,1.5707957594115858
37.300000000000004,-2.2712592835395382,138.43368502002835,-292.5925974360029,151.01731968934288,2.271259284824791,1.570795759390841
37.399999999999999,-2.2714757047910314,138.43384108930579,-292.59259507607038,151.01716126011959,2.2714757060762842,1.5707957593701649
37.5,-2.2716913346078882,138.43399656778624,-292.59259272524679,151.01700343080228,2.271691335893141,1.570795759349557
37.600000000000001,-2.271906177947137,138.43415145927074,-292.5925903834771,151.01684619753482,2.2719061792323898,1.5707957593290165
37.700000000000003,-2.2721202397216698,138.43430576752576,-292.59258805070669,151.01668955649617,2.2721202410069226,1.5707957593085435
37.800000000000004,-2.2723335248007528,138.43445949628358,-292.59258572688145,151.01653350389992,2.2723335260860056,1.5707957592881374
37.899999999999999,-2.2725460380105278,138.43461264924264,-292.5925834119476,151.01637803599388,2.2725460392957806,1.5707957592677977
38.0,-2.2727577841345088,138.434765230068,-292.59258110585182,151.01622314905967,2.2727577854197616,1.5707957592475241
38.100000000000001,-2.2729687679140693,138.43491724239169,-292.59257880854125,151.01606883941236,2.2729687691993221,1.5707957592273163
38.200000000000003,-2.2731789940489238,138.43506868981316,-292.59257651996347,151.01591510340006,2.2731789953341766,1.570795759207174
38.300000000000004,-2.2733884671976026,138.43521957589959,-292.59257424006637,151.01576193740357,2.2733884684828554,1.5707957591870967
38.400000000000006,-2.2735971919779199,138.43536990418627,-292.59257196879838,151.01560933783597,2.2735971932631727,1.570795759167084
38.5,-2.2738051729674349,138.435519678177,-292.59256970610829,151.01545730114222,2.2738051742526877,1.5707957591471355
38.600000000000001,-2.2740124147039067,138.43566890134443,-292.59256745194523,151.01530582379891,2.2740124159891595,1.570795759127251
38.700000000000003,-2.274218921685744,138.43581757713039,-292.59256520625883,151.01515490231372,2.2742189229709968,1.57079575910743
38.800000000000004,-2.2744246983724481,138.43596570894636,-292.59256296899906,151.01500453322521,2.2744246996577009,1.5707957590876722
38.900000000000006,-2.274629749185046,138.43611330017367,-292.59256074011631,151.01485471310241,2.2746297504702988,1.5707957590679771
39.0,-2.2748340785065255,138.43626035416395,-292.59255851956135,151.0147054385445,2.2748340797917783,1.5707957590483446
39.100000000000001,-2.2750376906822551,138.43640687423937,-292.59255630728535,151.0145567061804,2.2750376919675079,1.5707957590287742
39.200000000000003,-2.2752405900204056,138.43655286369307,-292.59255410323982,151.01440851266855,2.2752405913056584,1.5707957590092656
39.300000000000004,-2.2754427807923623,138.43669832578945,-292.59255190737673,151.01426085469646,2.2754427820776151,1.5707957589898183
39.400000000000006,-2.2756442672331327,138.4368432637645,-292.59254971964833,151.01411372898045,2.2756442685183855,1.5707957589704322
39.5,-2.2758450535417469,138.43698768082609,-292.59254754000727,151.01396713226529,2.2758450548269997,1.5707957589511068
39.600000000000001,-2.2760451438816549,138.43713158015433,-292.59254536840666,151.01382106132394,2.2760451451669077,1.5707957589318418
39.700000000000003,-2.276244542381118,138.43727496490183,-292.59254320479982,151.01367551295715,2.2762445436663707,1.5707957589126369
39.800000000000004,-2.2764432531335936,138.43741783819408,-292.59254104914055,151.01353048399321,2.2764432544188464,1.5707957588934918
39.900000000000006,-2.2766412801981164,138.43756020312966,-292.59253890138297,151.01338597128765,2.2766412814833692,1.5707957588744059
40.0,-2.2768386275996719,138.43770206278063,-292.59253676148154,151.01324197172289,2.2768386288849247,1.5707957588553791
40.100000000000001,-2.277035299329571,138.43784342019276,-292.59253462939103,151.01309848220797,2.2770353006148238,1.5707957588364112
40.200000000000003,-2.2772312993458104,138.43798427838587,-292.59253250506669,151.01295549967824,2.2772313006310632,1.5707957588175017
40.300000000000004,-2.2774266315734359,138.43812464035403,-292.59253038846401,151.01281302109516,2.2774266328586887,1.5707957587986503
40.400000000000006,-2.2776212999048977,138.43826450906596,-292.59252827953884,151.01267104344586,2.2776213011901505,1.5707957587798567
40.5,-2.2778153082004016,138.43840388746523,-292.5925261782474,151.01252956374299,2.2778153094856544,1.5707957587611205
40.600000000000001,-2.2780086602882545,138.43854277847055,-292.5925240845462,151.01238857902433,2.2780086615735073,1.5707957587424417
40.700000000000003,-2.2782013599652067,138.43868118497605,-292.5925219983921,151.01224808635263,2.2782013612504595,1.5707957587238197
40.800000000000004,-2.2783934109967894,138.43881910985152,-292.5925199197423,151.01210808281527,2.2783934122820422,1.5707957587052543
40.900000000000006,-2.2785848171176486,138.43895655594278,-292.59251784855428,151.01196856552397,2.2785848184029014,1.5707957586867451
41.0,-2.2787755820318703,138.43909352607176,-292.59251578478592,151.01182953161464,2.278775583317123,1.5707957586682919
41.100000000000001,-2.2789657094133089,138.43923002303691,-292.59251372839537,151.01169097824697,2.2789657106985617,1.5707957586498944
41.200000000000003,-2.2791552029059039,138.4393660496134,-292.5925116793411,151.01155290260428,2.2791552041911567,1.5707957586315522
41.300000000000004,-2.2793440661239974,138.43950160855337,-292.59250963758194,151.01141530189324,2.2793440674092502,1.570795758613265
41.400000000000006,-2.2795323026526457,138.43963670258614,-292.59250760307691,151.01127817334358,2.2795323039378985,1.5707957585950327
41.5,-2.2797199160479265,138.43977133441854,-292.59250557578548,151.01114151420791,2.2797199173331792,1.5707957585768548
41.600000000000001,-2.2799069098372424,138.43990550673507,-292.59250355566735,151.01100532176142,2.2799069111224952,1.5707957585587311
41.700000000000003,-2.2800932875196223,138.44003922219821,-292.5925015426825,151.01086959330166,2.2800932888048751,1.5707957585406613
41.800000000000004,-2.2802790525660153,138.44017248344858,-292.59249953679131,151.01073432614837,2.2802790538512681,1.5707957585226453
41.900000000000006,-2.2804642084195841,138.44030529310518,-292.59249753795433,151.01059951764307,2.2804642097048369,1.5707957585046826
42.0,-2.2806487584959934,138.44043765376571,-292.59249554613245,151.01046516514904,2.2806487597812461,1.5707957584867729
42.100000000000001,-2.2808327061836948,138.44056956800668,-292.59249356128691,151.01033126605091,2.2808327074689476,1.5707957584689161
42.200000000000003,-2.2810160548442071,138.44070103838368,-292.59249158337923,151.0101978177546,2.2810160561294599,1.5707957584511116
42.300000000000004,-2.2811988078123941,138.44083206743164,-292.59248961237114,151.01006481768695,2.2811988090976469,1.5707957584333596
42.400000000000006,-2.2813809683967392,138.44096265766498,-292.59248764822468,151.00993226329561,2.281380969681992,1.5707957584156595
42.5,-2.2815625398796158,138.44109281157785,-292.59248569090221,151.00980015204874,2.2815625411648686,1.5707957583980112
42.600000000000001,-2.2817435255175549,138.44122253164437,-292.59248374036633,151.00966848143486,2.2817435268028077,1.5707957583804142
42.700000000000003,-2.2819239285415076,138.44135182031877,-292.59248179657993,151.00953724896257,2.2819239298267604,1.5707957583628684
42.800000000000004,-2.282103752157107,138.44148068003568,-292.59247985950617,151.00940645216048,2.2821037534423598,1.5707957583453735
42.900000000000006,-2.2822829995449245,138.44160911321026,-292.59247792910844,151.00927608857683,2.2822830008301773,1.5707957583279293
43.0,-2.2824616738607264,138.44173712223844,-292.59247600535048,151.00914615577935,2.2824616751459792,1.5707957583105354
43.100000000000001,-2.28263977823572,138.44186470949711,-292.5924740881963,151.00901665135515,2.2826397795209727,1.5707957582931917
43.200000000000003,-2.2828173157768039,138.44199187734432,-292.59247217761009,151.00888757291042,2.2828173170620567,1.570795758275898
43.300000000000004,-2.2829942895668149,138.44211862811949,-292.59247027355633,151.00875891807024,2.2829942908520677,1.5707957582586538
43.400000000000006,-2.2831707026647674,138.44224496414353,-292.59246837599977,151.00863068447839,2.2831707039500202,1.5707957582414591
43.5,-2.2833465581060906,138.44237088771911,-292.59246648490546,151.00850286979727,2.2833465593913433,1.5707957582243135
43.600000000000001,-2.283521858902867,138.4424964011308,-292.5924646002386,151.00837547170755,2.2835218601881198,1.5707957582072167
43.700000000000003,-2.2836966080440644,138.44262150664528,-292.59246272196469,151.00824848790805,2.2836966093293172,1.5707957581901686
43.800000000000004,-2.2838708084957657,138.44274620651149,-292.59246085004958,151.00812191611558,2.2838708097810185,1.5707957581731689
43.900000000000006,-2.2840444632013965,138.44287050296086,-292.5924589844592,151.00799575406475,2.2840444644866493,1.5707957581562173
44.0,-2.2842175750819482,138.44299439820742,-292.59245712515985,151.00786999950773,2.284217576367201,1.5707957581393137
44.100000000000001,-2.2843901470362011,138.44311789444805,-292.592455272118,151.00774465021422,2.2843901483214539,1.5707957581224576
44.200000000000003,-2.284562181940943,138.44324099386256,-292.59245342530039,151.00761970397107,2.2845621832261958,1.5707957581056491
44.300000000000004,-2.284733682651185,138.44336369861395,-292.592451584674,151.00749515858232,2.2847336839364378,1.5707957580888876
44.400000000000006,-2.2849046520003764,138.44348601084855,-292.59244975020601,151.00737101186883,2.2849046532856292,1.5707957580721732
44.5,-2.285075092800616,138.44360793269612,-292.59244792186394,151.00724726166823,2.2850750940858688,1.5707957580555056
44.600000000000001,-2.2852450078428577,138.44372946627016,-292.59244609961542,151.00712390583476,2.2852450091281105,1.5707957580388845
44.700000000000003,-2.2854143998971201,138.44385061366788,-292.59244428342834,151.0070009422391,2.2854144011823729,1.5707957580223095
44.800000000000004,-2.2855832717126896,138.44397137697055,-292.59244247327086,151.00687836876813,2.2855832729979424,1.5707957580057808
44.900000000000006,-2.2857516260183197,138.44409175824353,-292.59244066911134,151.00675618332482,2.2857516273035725,1.5707957579892977
45.0,-2.2859194655224315,138.4442117595365,-292.59243887091839,151.0066343838281,2.2859194668076843,1.5707957579728602
45.100000000000001,-2.2860867929133093,138.44433138288352,-292.59243707866079,151.00651296821272,2.2860867941985621,1.5707957579564682
45.200000000000003,-2.286253610859295,138.44445063030332,-292.59243529230758,151.00639193442896,2.2862536121445478,1.5707957579401213
45.300000000000004,-2.2864199220089807,138.44456950379933,-292.59243351182801,151.00627128044266,2.2864199232942335,1.5707957579238192
45.400000000000006,-2.2865857289913971,138.44468800535992,-292.59243173719153,151.00615100423491,2.2865857302766499,1.570795757907562
45.5,-2.2867510344162012,138.44480613695845,-292.59242996836781,151.00603110380203,2.286751035701454,1.5707957578913492
45.600000000000001,-2.2869158408738612,138.44492390055348,-292.59242820532677,151.00591157715533,2.286915842159114,1.5707957578751808
45.700000000000003,-2.2870801509358403,138.44504129808894,-292.59242644803851,151.00579242232101,2.2870801522210931,1.5707957578590563
45.800000000000004,-2.2872439671547764,138.44515833149421,-292.5924246964733,151.00567363733998,2.2872439684400292,1.5707957578429759
45.900000000000006,-2.2874072920646618,138.44527500268427,-292.5924229506017,151.00555522026778,2.2874072933499145,1.5707957578269389
46.0,-2.2875701281810179,138.44539131355987,-292.59242121039443,151.0054371691744,2.2875701294662707,1.5707957578109455
46.100000000000001,-2.287732478001073,138.44550726600767,-292.59241947582245,151.00531948214413,2.2877324792863258,1.5707957577949954
46.200000000000003,-2.2878943440039317,138.44562286190032,-292.59241774685682,151.00520215727542,2.2878943452891845,1.5707957577790883
46.300000000000004,-2.2880557286507468,138.44573810309663,-292.5924160234689,151.00508519268075,2.2880557299359996,1.5707957577632239
46.400000000000006,-2.2882166343848889,138.44585299144174,-292.5924143056302,151.00496858648657,2.2882166356701417,1.5707957577474021
46.5,-2.2883770636321099,138.44596752876717,-292.59241259331247,151.00485233683304,2.2883770649173627,1.5707957577316227
46.600000000000001,-2.288537018800711,138.44608171689103,-292.59241088648764,151.004736441874,2.2885370200859638,1.5707957577158858
46.700000000000003,-2.2886965022817032,138.44619555761807,-292.59240918512779,151.0046208997768,2.288696503566956,1.5707957577001908
46.800000000000004,-2.2888555164489701,138.44630905273988,-292.59240748920524,151.00450570872215,2.2888555177342229,1.5707957576845375
46.900000000000006,-2.2890140636594252,138.44642220403497,-292.59240579869248,151.00439086690403,2.289014064944678,1.570795757668926
47.0,-2.2891721462531702,138.44653501326891,-292.59240411356222,151.0042763725296,2.2891721475384226,1.5707957576533558
47.100000000000001,-2.2893297665536507,138.44664748219444,-292.5924024337873,151.00416222381895,2.2893297678389031,1.5707957576378269
47.200000000000003,-2.2894869268678089,138.44675961255155,-292.59240075934076,151.00404841900513,2.2894869281530612,1.570795757622339
47.300000000000004,-2.2896436294862363,138.44687140606771,-292.5923990901959,151.00393495633392,2.2896436307714887,1.5707957576068921
47.400000000000006,-2.2897998766833236,138.44698286445791,-292.5923974263261,151.00382183406379,2.289799877968576,1.5707957575914857
47.5,-2.2899556707174105,138.44709398942476,-292.59239576770494,151.00370905046566,2.2899556720026628,1.57079575757612
47.600000000000001,-2.2901110138309306,138.44720478265867,-292.59239411430622,151.00359660382296,2.290111015116183,1.5707957575607945
47.700000000000003,-2.2902659082505581,138.4473152458379,-292.59239246610389,151.00348449243134,2.2902659095358104,1.5707957575455092
47.800000000000004,-2.2904203561873508,138.44742538062872,-292.59239082307209,151.0033727145987,2.2904203574726032,1.5707957575302636
47.900000000000006,-2.2905743598368926,138.44753518868549,-292.59238918518514,151.00326126864493,2.290574361122145,1.5707957575150577
48.0,-2.2907279213794323,138.44764467165081,-292.59238755241751,151.00315015290201,2.2907279226646846,1.5707957574998916
48.100000000000001,-2.2908810429800255,138.44775383115552,-292.59238592474384,151.00303936571365,2.2908810442652778,1.5707957574847649
48.200000000000003,-2.2910337267886689,138.447862668819,-292.59238430213895,151.00292890543537,2.2910337280739212,1.5707957574696774
48.300000000000004,-2.2911859749404369,138.44797118624908,-292.5923826845779,151.00281877043429,2.2911859762256892,1.5707957574546287
48.400000000000006,-2.2913377895556168,138.44807938504223,-292.59238107203578,151.00270895908909,2.2913377908408692,1.570795757439619
48.5,-2.2914891727398414,138.44818726678372,-292.59237946448792,151.00259946978986,2.2914891740250938,1.5707957574246478
48.600000000000001,-2.2916401265842197,138.44829483304764,-292.59237786190982,151.00249030093798,2.291640127869472,1.5707957574097153
48.700000000000003,-2.2917906531654668,138.44840208539699,-292.59237626427711,151.0023814509461,2.2917906544507192,1.570795757394821
48.800000000000004,-2.2919407545460326,138.44850902538386,-292.59237467156561,151.00227291823794,2.291940755831285,1.5707957573799649
48.900000000000006,-2.2920904327742293,138.44861565454946,-292.59237308375134,151.00216470124826,2.2920904340594817,1.5707957573651468
49.0,-2.2922396898843558,138.44872197442425,-292.59237150081037,151.00205679842276,2.2922396911696081,1.5707957573503664
49.100000000000001,-2.2923885278968239,138.44882798652804,-292.592369922719,151.00194920821787,2.2923885291820763,1.5707957573356237
49.200000000000003,-2.2925369488182783,138.44893369237008,-292.59236834945375,151.00184192910083,2.2925369501035306,1.5707957573209184
49.300000000000004,-2.2926849546417225,138.44903909344916,-292.59236678099114,151.00173495954945,2.2926849559269749,1.5707957573062503
49.400000000000006,-2.292832547346634,138.44914419125365,-292.59236521730799,151.00162829805211,2.2928325486318863,1.5707957572916196
49.5,-2.2929797288990876,138.44924898726171,-292.59236365838115,151.00152194310758,2.29297973018434,1.5707957572770257
49.600000000000001,-2.2931265012518707,138.44935348294123,-292.59236210418771,151.00141589322499,2.293126502537123,1.5707957572624687
49.700000000000003,-2.2932728663446005,138.44945767975008,-292.59236055470484,151.00131014692369,2.2932728676298528,1.5707957572479483
49.800000000000004,-2.2934188261038382,138.44956157913606,-292.59235900990996,151.00120470273325,2.2934188273890905,1.5707957572334643
49.900000000000006,-2.293564382443205,138.44966518253707,-292.59235746978055,151.00109955919328,2.2935643837284574,1.5707957572190168
50.0,-2.2937095372634926,138.44976849138121,-292.59235593429429,151.00099471485333,2.2937095385487449,1.5707957572046052
