ianabraham21/robotLibrary/ur5_simData.csv
time,shoulder_pan_joint,shoulder_lift_joint,elbow_joint,wrist_1_joint,wrist_2_joint,wrist_3_joint
0,0,0,0,0,0,0
0,-0.00263374,-0.008458709999999999,-0.00511406,-0.00517887,0.00351958,0.009241579999999999
0.1,-0.2470526036653813,2.000648026027022,-1.699525084591642,0.1438187663040367,-0.2456668431537396,1.125859613996102
0.2,-0.5901022199505574,1.241119155941789,-0.8052769241329543,1.034986506577752,0.5324141750372523,0.08173937327233016
0.3,-0.8624085206135013,1.09821041161311,-0.868788276110763,2.805149616375473,0.09624209591590904,1.751981591551357
0.4,-1.095313861392821,1.02700270332312,-0.4775672472887322,0.845881070290659,1.085390802257897,0.1793098701571805
0.5,-1.28459472177039,0.9125762254751066,-0.9009986373533252,0.2105357289475478,0.3352540605641492,1.460787112748984
0.6000000000000001,-1.444096769537406,0.5712914400403122,-0.3978023773249788,2.425125119541406,1.424595683627179,2.137236097922278
0.7000000000000001,-1.563569222759501,0.3880248154482331,-0.2875871338616776,3.039817303690484,1.39354307216096,1.51851099595871
0.8,-1.631847176097135,0.145294286545635,-0.6233603553521334,0.4735835776266129,1.631843271306149,1.571258261482736
0.9,-1.677744243934943,0.04415537437222383,-0.6346407586372038,0.5904728096347469,1.677742749450107,1.570590202386999
1,-1.719550074603033,3.125332130845436,-0.6024914751318988,0.6187519412839606,1.719550075888287,1.570795798055332
1.1,-1.744119329809708,3.102297237312399,-0.5792625794606465,0.6185579389373856,1.744119331094961,1.570795796649375
1.2,-1.764834965574236,3.087721717845426,-0.5604310293689423,0.6143019081066541,1.76483496685949,1.570795795454816
1.3,-1.782746298790012,3.078366683181713,-0.5448301721542634,0.6080560853550026,1.782746300075265,1.570795794414223
1.4,-1.798536526691508,3.072437076818176,-0.5316899512982332,0.6008454706681334,1.798536527976761,1.57079579349023
1.5,-1.81267666167151,3.06885912286171,-0.5204690131914163,0.593202486329659,1.812676662956763,1.570795792657048
1.6,-1.825503694407933,3.066954370863357,-0.510775253136444,0.5854134780907714,1.825503695693187,1.570795791896193
1.7,-1.837265404851751,3.066275317284351,-0.5023185609391021,0.5776358392955103,1.837265406137004,1.570795791194041
1.8,-1.848147945620853,3.066516027452224,-0.4948803228129464,0.5699568908293031,1.848147946906106,1.570795790540337
1.9,-1.858293664988597,3.067460740850095,-0.4882929995412724,0.5624248539918995,1.85829366627385,1.570795789927225
2,-1.867813053585825,3.06895299145674,-0.4824261301187107,0.5550657337986422,1.867813054871078,1.5707957893486
2.1,-1.876792992352378,3.070876382327981,-0.4771765616641233,0.5478927743121176,1.876792993637631,1.570795788799658
2.2,-1.885302589025509,3.073142258660368,-0.4724615208145906,0.5409118569726274,1.885302590310762,1.57079578827658
2.3,-1.893397395701527,3.07568160646079,-0.4682136312216016,0.534124619424432,1.893397396986781,1.570795787776298
2.4,-1.901122511756706,3.078439615274277,-0.464377286220099,0.5275302654573011,1.901122513041959,1.570795787296327
2.5,-1.908514902093825,3.081371961904978,-0.4609059794850623,0.5211266119418667,1.908514903379078,1.570795786834637
2.6,-1.915605151968935,3.084442228969039,-0.4577603220942592,0.514910687339551,1.915605153254188,1.570795786389554
2.7,-1.922418810055712,3.087620084726836,-0.454906557257118,0.5088790665993201,1.922418811340965,1.570795785959688
2.8,-1.928977425812714,3.090879980925649,-0.452315439522522,0.5030280525226942,1.928977427097967,1.570795785543873
2.9,-1.935299356728707,3.094200207274298,-0.449961383149116,0.4973537696594121,1.93529935801396,1.570795785141121
3,-1.941400400238612,3.097562193833113,-0.4478218105645055,0.4918522103767486,1.941400401523865,1.57079578475059
3.1,-1.947294290680654,3.10094998716437,-0.4458766503126412,0.4865192566563792,1.947294291965908,1.570795784371551
3.2,-1.952993091483498,3.104349849180096,-0.4441079470959153,0.4813506912885543,1.952993092768752,1.570795784003369
3.3,-1.958507505463063,3.107749943287445,-0.4424995560911498,0.4763422060429718,1.958507506748317,1.570795783645485
3.4,-1.963847120776118,3.111140083186399,-0.4410369007479176,0.4714894106691361,1.963847122061372,1.570795783297401
3.5,-1.96902060612574,3.114511527126979,-0.4397067784899491,0.4667878443408426,1.969020607410994,1.570795782958667
3.6,-1.974035865841314,3.11785680562781,-0.4384972026403489,0.4622329898625139,1.974035867126567,1.570795782628877
3.7,-1.978900163189113,3.121169574288558,-0.4373972718217374,0.4578202902571036,1.978900164474366,1.570795782307657
3.8,-1.983620218519829,3.124444485866064,-0.436397060294496,0.4535451670281532,1.983620219805082,1.570795781994662
3.9,-1.988202287494239,3.127677077550004,-0.4354875243645324,0.4494030392918376,1.988202288779492,1.570795781689571
4,-1.992652223553793,3.130863670596824,-0.4346604212481679,0.4453893430080598,1.992652224839046,1.570795781392083
4.100000000000001,-1.996975527951417,3.134001280319126,-0.4339082377256887,0.4414995496444476,1.99697552923667,1.570795781101915
4.2,-2.001177389979561,3.137087534996141,-0.4332241266170627,0.4377291837417374,2.001177391264815,1.570795780818799
4.3,-2.005262719490569,3.140120602651734,-0.4326018496357733,0.4340738389895762,2.005262720775822,1.570795780542479
4.4,-2.009236173370496,0.001506471307379798,-0.4320357255581371,0.4305291925529957,2.009236174655749,1.570795780272715
4.5,-2.013102177279956,0.00442950360908867,-0.4315205829239517,0.427091017505262,2.013102178565209,1.570795780009274
4.600000000000001,-2.016864943697416,0.00729646144671392,-0.4310517166840668,0.4237551933175894,2.016864944982669,1.570795779751934
4.7,-2.020528487078059,0.01010707189311688,-0.4306248483525223,0.4205177144311563,2.020528488363312,1.570795779500484
4.800000000000001,-2.02409663676413,0.01286133019215185,-0.4302360893209425,0.4173746969937042,2.024096638049383,1.57079577925472
4.9,-2.027573048141907,0.01555946093938587,-0.4298819070613149,0.4143223838816255,2.02757304942716,1.570795779014447
5,-2.030961212428932,0.01820188349313412,-0.4295590939913723,0.411357148154309,2.030961213714185,1.570795778779477
5.100000000000001,-2.034264465387221,0.02078918126113649,-0.4292647388091382,0.4084754951019818,2.034264466672474,1.570795778549631
5.2,-2.037485995189256,0.02332207452593593,-0.4289962001251979,0.4056740630527145,2.037485996474509,1.570795778324734
5.300000000000001,-2.040628849609633,0.02580139648819113,-0.4287510822366585,0.4029496231028986,2.040628850894886,1.570795778104621
5.4,-2.043695942673477,0.0282280722252608,-0.4285272128976203,0.400299077929219,2.04369594395873,1.570795777889132
5.5,-2.046690060860452,0.03060310028016033,-0.4283226229494517,0.3977194598300287,2.046690062145705,1.570795777678113
5.600000000000001,-2.049613868938433,0.03292753661477832,-0.4281355276810928,0.3952079281323506,2.049613870223686,1.570795777471415
5.7,-2.052469915482134,0.03520248068025467,-0.4279643097953567,0.3927617660878013,2.052469916767388,1.570795777268898
5.800000000000001,-2.055260638117731,0.03742906337649288,-0.4278075038629368,0.3903783773671989,2.055260639402984,1.570795777070424
5.9,-2.057988368523912,0.03960843669122482,-0.4276637821519103,0.3880552822508037,2.057988369809165,1.570795776875862
6,-2.060655337211962,0.04174176482766256,-0.4275319417251922,0.3857901135983468,2.060655338497216,1.570795776685087
6.100000000000001,-2.06326367810167,0.04383021664699527,-0.4274108927054954,0.3835806126712953,2.063263679386923,1.570795776497977
6.2,-2.065815432905779,0.0458749592687866,-0.4272996476119033,0.3814246248691404,2.065815434191032,1.570795776314416
6.300000000000001,-2.068312555332745,0.04787715268807347,-0.4271973116786967,0.3793200954310691,2.068312556617999,1.570795776134291
6.4,-2.070756915115507,0.04983794528209273,-0.4271030740728747,0.3772650651468439,2.07075691640076,1.570795775957496
6.5,-2.073150301872663,0.05175847009371637,-0.4270161999321544,0.375257666111338,2.073150303157917,1.570795775783927
6.600000000000001,-2.075494428807528,0.05363984179055592,-0.426936023151427,0.3732961175516891,2.075494430092781,1.570795775613484
6.7,-2.077790936249961,0.05548315421034999,-0.4268619398501983,0.3713787217497497,2.077790937535214,1.570795775446074
6.800000000000001,-2.080041395045644,0.05728947841311083,-0.4267934024600208,0.3695038600769465,2.080041396330897,1.570795775281602
6.9,-2.08224730979721,0.05905986117042517,-0.4267299143742207,0.367669989155047,2.082247311082464,1.570795775119982
7,-2.084410121961691,0.06079532383003539,-0.4266710251087034,0.3658756371521577,2.084410123246944,1.570795774961129
7.100000000000001,-2.086531212808673,0.06249686150184175,-0.4266163259254654,0.3641194002204031,2.086531214093927,1.570795774804962
7.2,-2.088611906243623,0.06416544251746359,-0.426565445875724,0.3623999390793244,2.088611907528876,1.570795774651401
7.300000000000001,-2.090653471500906,0.06580200812246062,-0.4265180482225333,0.3607159757463592,2.090653472786159,1.570795774500372
7.4,-2.092657125711035,0.0674074723646072,-0.4264738272069621,0.3590662904148303,2.092657126996288,1.570795774351802
7.5,-2.094624036346753,0.06898272214701251,-0.4264325051250921,0.3574497184777101,2.094624037632006,1.570795774205621
7.600000000000001,-2.096555323552518,0.07052861741840388,-0.426393829685594,0.3558651476948569,2.096555324837771,1.570795774061762
7.7,-2.098452062361994,0.07204599147723911,-0.4263575716210539,0.3543115155003989,2.098452063647247,1.570795773920161
7.800000000000001,-2.10031528480813,0.07353565136892826,-0.426323522528719,0.3527878064461731,2.100315286093383,1.570795773780756
7.9,-2.102145981930315,0.07499837835842982,-0.4262914929179829,0.3512930497765865,2.102145983215568,1.570795773643486
8,-2.103945105683062,0.07643492846312938,-0.4262613104450566,0.3498263171304359,2.103945106968315,1.570795773508293
8.1,-2.105713570750607,0.07784603303284143,-0.4262328183161799,0.3483867203641751,2.10571357203586,1.570795773375123
8.200000000000001,-2.107452256271677,0.07923239936590676,-0.4262058738435712,0.3469734094915964,2.10745225755693,1.570795773243922
8.300000000000001,-2.109162007478588,0.0805947113515515,-0.4261803471386543,0.3455855707348974,2.109162008763841,1.570795773114637
8.4,-2.110843637254708,0.08193363013074872,-0.4261561199297148,0.3442224246814476,2.110843638539961,1.57079577298722
8.5,-2.112497927614231,0.08324979476839189,-0.4261330844917097,0.3428832245412536,2.112497928899485,1.570795772861622
8.6,-2.114125631107985,0.08454382293126628,-0.4261111426774278,0.3415672545002337,2.114125632393239,1.570795772737798
8.700000000000001,-2.115727472158964,0.08581631156678782,-0.4260902050399409,0.3402738281641007,2.115727473444217,1.570795772615701
8.800000000000001,-2.117304148331063,0.08706783757858716,-0.42607019003799,0.3390022870879648,2.117304149616316,1.57079577249529
8.9,-2.118856331534379,0.08829895849541458,-0.4260510233158925,0.3377519993873364,2.118856332819632,1.570795772376522
9,-2.120384669170302,0.08951021313083629,-0.4260326370508665,0.3365223584258388,2.120384670455555,1.570795772259358
9.1,-2.121889785219454,0.09070212223141993,-0.4260149693614039,0.3353127815754249,2.121889786504707,1.570795772143759
9.200000000000001,-2.123372281275452,0.09187518911150505,-0.4259979637708398,0.3341227090450332,2.123372282560704,1.570795772029686
9.300000000000001,-2.124832737527251,0.0930299002733932,-0.4259815687205446,0.3329516027737895,2.124832738812504,1.570795771917105
9.4,-2.12627171369278,0.09416672601165033,-0.4259657371285357,0.3317989453850601,2.126271714978033,1.570795771805979
9.5,-2.127689749906377,0.09528612100086775,-0.4259504259885034,0.3306642391979722,2.12768975119163,1.570795771696275
9.600000000000001,-2.12908736756246,0.09638852486625638,-0.4259355960060702,0.3295470052928806,2.129087368847713,1.570795771587959
9.700000000000001,-2.130465070117724,0.09747436273679,-0.4259212112681894,0.3284467826277933,2.130465071402976,1.570795771481002
9.800000000000001,-2.131823343854033,0.09854404578052822,-0.4259072389430116,0.3273631272028013,2.131823345139285,1.570795771375371
9.9,-2.133162658604081,0.09959797172226104,-0.4258936490070369,0.3262956112695861,2.133162659889333,1.570795771271036
10,-2.134483468441774,0.1006365253434467,-0.4258804139971062,0.3252438225835306,2.134483469727027,1.57079577116797
10.1,-2.135786212339196,0.1016600789644713,-0.4258675087849042,0.3242073636959049,2.135786213624449,1.570795771066144
10.2,-2.137071314791906,0.1026689929097699,-0.4258549103719247,0.3231858512837391,2.137071316077158,1.570795770965532
10.3,-2.138339186414236,0.1036636159558668,-0.42584259770274,0.32217891551511,2.138339187699489,1.570795770866106
10.4,-2.139590224506162,0.1046442857625607,-0.4258305514952099,0.32118619944805,2.139590225791415,1.570795770767842
10.5,-2.140824813593238,0.1056113292881662,-0.4258187540859808,0.3202073584609195,2.14082481487849,1.570795770670715
10.6,-2.142043325941004,0.1065650631886399,-0.4258071892895714,0.3192420597122236,2.142043327226256,1.570795770574702
10.7,-2.143246122045187,0.1075057942013871,-0.4257958422702472,0.3182899816288227,2.14324612333044,1.570795770479779
10.8,-2.144433551098973,0.1084338195140901,-0.4257846994250372,0.3173508134200631,2.144433552384226,1.570795770385923
10.9,-2.145605951438531,0.109349427119156,-0.425773748277436,0.3164242546170613,2.145605952723784,1.570795770293113
11,-2.146763650967912,0.1102528961540088,-0.4257629773802023,0.3155100146350946,2.146763652253165,1.570795770201328
11.1,-2.147906967564393,0.1111444972279969,-0.4257523762269102,0.3146078123583891,2.147906968849646,1.570795770110548
11.2,-2.149036209465272,0.1120244927361966,-0.4257419351711746,0.3137173757454264,2.149036210750525,1.570795770020751
11.3,-2.150151675637053,0.1128931371607393,-0.4257316453529825,0.3128384414541472,2.150151676922306,1.57079576993192
11.4,-2.151253656127938,0.1137506773599171,-0.4257214986315603,0.3119707544854293,2.151253657413191,1.570795769844034
11.5,-2.152342432404464,0.1145973528457489,-0.4257114875239836,0.3111140678443007,2.152342433689717,1.570795769757076
11.6,-2.15341827767308,0.1154333960503777,-0.4257016051490723,0.3102681422175237,2.153418278958333,1.570795769671028
11.7,-2.154481457187447,0.1162590325816382,-0.4256918451764591,0.3094327456667543,2.1544814584727,1.570795769585873
11.8,-2.15553222854215,0.1170744814684497,-0.4256822017796367,0.3086076533366509,2.155532229827403,1.570795769501593
11.9,-2.156570841953528,0.1178799553961767,-0.4256726695933821,0.3077926471766261,2.15657084323878,1.570795769418173
12,-2.157597540528239,0.118675660932638,-0.4256632436748191,0.3069875156759281,2.157597541813492,1.570795769335596
12.1,-2.158612560520187,0.1194617987448794,-0.4256539194676066,0.3061920536111984,2.15861256180544,1.570795769253847
12.2,-2.159616131576374,0.1202385638073622,-0.425644692769481,0.3054060618057122,2.159616132861627,1.570795769172911
12.3,-2.160608476972218,0.1210061456017399,-0.4256355597024708,0.3046293468997874,2.160608478257471,1.570795769092773
12.4,-2.161589813836862,0.1217647283085626,-0.4256265166854973,0.3038617211318808,2.161589815122115,1.570795769013419
12.5,-2.162560353368954,0.1225144909914206,-0.4256175604096484,0.3031030021293759,2.162560354654207,1.570795768934835
12.6,-2.16352030104335,0.1232556077737001,-0.4256086878152132,0.3023530127092329,2.163520302328603,1.570795768857007
12.7,-2.164469856809199,0.1239882480082315,-0.425599896070878,0.3016115806872506,2.164469858094452,1.570795768779923
12.8,-2.165409215279797,0.1247125764404302,-0.4255911825546264,0.3008785386960824,2.16540921656505,1.570795768703568
12.9,-2.166338565914617,0.12542875336473,-0.4255825448363453,0.3001537240111247,2.16633856719987,1.570795768627931
13,-2.167258093193883,0.1261369347750474,-0.4255739806616816,0.2994369783841364,2.167258094479136,1.570795768552999
13.1,-2.168167976786034,0.1268372725091638,-0.425565487937547,0.2987281478842192,2.168167978071287,1.570795768478761
13.2,-2.169068391708412,0.1275299143875941,-0.425557064718646,0.2980270827454774,2.169068392993664,1.570795768405205
13.3,-2.169959508481495,0.1282150043470551,-0.425548709195084,0.2973336372214135,2.169959509766748,1.570795768332319
13.4,-2.170841493276972,0.128892682568619,-0.4255404196813402,0.2966476694453775,2.170841494562224,1.570795768260091
13.5,-2.171714508059936,0.1295630856010064,-0.4255321946058075,0.2959690412970417,2.171714509345188,1.570795768188513
13.6,-2.172578710725478,0.1302263464791622,-0.4255240325014142,0.2952976182743896,2.172578712010731,1.570795768117572
13.7,-2.173434255229921,0.1308825948381411,-0.4255159319969835,0.2946332693711895,2.173434256515174,1.570795768047259
13.8,-2.17428129171695,0.1315319570228723,-0.425507891809275,0.293975866959272,2.174281293002203,1.570795767977563
13.9,-2.175119966638864,0.1321745561934904,-0.4254999107358231,0.2933252866759801,2.175119967924116,1.570795767908474
14,-2.175950422873158,0.1328105124268575,-0.4254919876481154,0.292681407315996,2.175950424158411,1.570795767839984
14.1,-2.176772799834671,0.1334399428142774,-0.4254841214857379,0.2920441107275735,2.176772801119924,1.570795767772081
14.2,-2.177587233583455,0.1340629615553723,-0.4254763112505771,0.2914132817129484,2.177587234868708,1.570795767704759
14.3,-2.178393856928593,0.1346796800486629,-0.4254685560018174,0.2907888079328131,2.178393858213846,1.570795767638006
14.4,-2.17919279952812,0.1352902069786523,-0.4254608548511669,0.2901705798144008,2.179192800813373,1.570795767571815
14.5,-2.179984187985224,0.135894648399784,-0.425453206958764,0.2895584904633495,2.179984189270476,1.570795767506177
14.6,-2.18076814594088,0.136493107817131,-0.4254456115289713,0.2889524355789774,2.180768147226133,1.570795767441083
14.7,-2.181544794163092,0.1370856862644132,-0.4254380678069651,0.2883523133727124,2.181544795448345,1.570795767376526
14.8,-2.182314250632861,0.1376724823789459,-0.4254305750753247,0.2877580244898184,2.182314251918114,1.570795767312497
14.9,-2.183076630627034,0.1382535924740012,-0.4254231326510762,0.2871694719340212,2.183076631912287,1.570795767248989
15,-2.183832046798166,0.1388291106084694,-0.4254157398827942,0.2865865609950902,2.183832048083419,1.570795767185993
15.1,-2.184580609251518,0.1393991286540768,-0.4254083961482138,0.2860091991789204,2.18458061053677,1.570795767123502
15.2,-2.185322425619301,0.1399637363602722,-0.4254011008517864,0.2854372961406,2.185322426904554,1.57079576706151
15.3,-2.186057601132303,0.1405230214166124,-0.4253938534225767,0.2848707636195797,2.186057602417556,1.570795767000008
15.4,-2.186786238688984,0.1410770695132157,-0.4253866533123301,0.2843095153775437,2.186786239974237,1.570795766938989
15.5,-2.187508438922156,0.1416259643988553,-0.4253794999937099,0.2837534671382684,2.187508440207409,1.570795766878448
15.6,-2.188224300263345,0.1421697879371209,-0.4253723929584794,0.2832025365300126,2.188224301548598,1.570795766818376
15.7,-2.188933919004925,0.142708620160704,-0.4253653317162502,0.282656643029668,2.188933920290178,1.570795766758768
15.8,-2.189637389360126,0.1432425393236656,-0.4253583157928915,0.2821157079090426,2.189637390645379,1.570795766699617
15.9,-2.190334803520976,0.1437716219519984,-0.4253513447293358,0.2815796541831332,2.190334804806229,1.570795766640916
16,-2.191026251714292,0.1442959428923984,-0.4253444180805559,0.2810484065601315,2.191026252999545,1.57079576658266
16.1,-2.191711822255771,0.1448155753595017,-0.4253375354143714,0.2805218913931924,2.191711823541024,1.570795766524841
16.2,-2.192391601602274,0.1453305909813878,-0.4253306963103682,0.2800000366339361,2.192391602887527,1.570795766467455
16.3,-2.193065674402363,0.1458410598435762,-0.4253239003593308,0.2794827717875421,2.193065675687616,1.570795766410495
16.4,-2.193734123545159,0.1463470505316309,-0.4253171471621613,0.2789700278693772,2.193734124830411,1.570795766353956
16.5,-2.194397030207595,0.1468486301722294,-0.425310436329255,0.2784617373631306,2.194397031492847,1.570795766297832
16.6,-2.195054473900126,0.1473458644730385,-0.4253037674798179,0.2779578341803415,2.195054475185378,1.570795766242117
16.7,-2.195706532510936,0.1478388177610555,-0.4252971402411845,0.2774582536213472,2.195706533796189,1.570795766186807
16.8,-2.196353282348728,0.1483275530198966,-0.4252905542483063,0.2769629323374829,2.196353283633981,1.570795766131895
16.9,-2.196994798184129,0.14881213192578,-0.4252840091432404,0.276471808294616,2.196994799469381,1.570795766077376
17,-2.197631153289771,0.149292614882313,-0.4252775045746375,0.27598482073779,2.197631154575024,1.570795766023246
17.1,-2.198262419479098,0.1497690610542008,-0.4252710401974014,0.2755019101571463,2.198262420764351,1.5707957659695
17.2,-2.198888667143942,0.1502415283999028,-0.4252646156721767,0.2750230182548705,2.198888668429195,1.570795765916132
17.3,-2.199509965290925,0.1507100737031806,-0.4252582306650083,0.2745480879133027,2.199509966576178,1.570795765863138
17.4,-2.200126381576713,0.1511747526037368,-0.4252518848471141,0.2740770631639293,2.200126382861966,1.570795765810512
17.5,-2.200737982342177,0.1516356196267168,-0.4252455778945432,0.2736098891575978,2.20073798362743,1.570795765758251
17.6,-2.2013448326455,0.1520927282114997,-0.4252393094877789,0.2731465121354404,2.201344833930753,1.57079576570635
17.7,-2.201946996294263,0.1525461307394664,-0.4252330793116244,0.2726868794009363,2.201946997579516,1.570795765654803
17.8,-2.202544535876555,0.1529958785608869,-0.4252268870549756,0.2722309392926547,2.202544537161808,1.570795765603608
17.9,-2.203137512791126,0.1534420220210677,-0.425220732410537,0.2717786411580221,2.203137514076379,1.570795765552759
18,-2.20372598727664,0.1538846104855907,-0.4252146150746512,0.2713299353277989,2.203725988561893,1.570795765502253
18.1,-2.20431001844004,0.1543236923648692,-0.4252085347472416,0.270884773091467,2.204310019725293,1.570795765452084
18.2,-2.204889664284075,0.1547593151379658,-0.4252024911315289,0.2704431066731559,2.204889665569327,1.57079576540225
18.3,-2.205464981733987,0.1551915253755567,-0.4251964839339166,0.2700048892085931,2.20546498301924,1.570795765352745
18.4,-2.206036026663437,0.1556203687623565,-0.4251905128638214,0.2695700747225658,2.20603602794869,1.570795765303567
18.5,-2.206602853919647,0.1560458901188042,-0.4251845776337291,0.2691386181070072,2.2066028552049,1.570795765254711
18.6,-2.207165517347813,0.1564681334220666,-0.4251786779587974,0.2687104750999936,2.207165518633066,1.570795765206173
18.7,-2.207724069814809,0.1568871418265587,-0.4251728135570829,0.2682856022651663,2.207724071100062,1.570795765157949
18.8,-2.2082785632322,0.1573029576836404,-0.4251669841492571,0.2678639569717518,2.208278564517453,1.570795765110037
18.9,-2.2088290485786,0.1577156225609713,-0.4251611894584926,0.26744549737532,2.208829049863852,1.570795765062432
19,-2.20937557592138,0.1581251772611552,-0.4251554292105766,0.2670301823990258,2.209375577206633,1.57079576501513
19.1,-2.209918194437766,0.1585316618398167,-0.4251497031336271,0.2666179717153909,2.209918195723019,1.570795764968129
19.2,-2.210456952435333,0.1589351156233079,-0.4251440109582063,0.2662088257286257,2.210456953720586,1.570795764921425
19.3,-2.210991897371924,0.1593355772257325,-0.425138352417207,0.2658027055574905,2.210991898657177,1.570795764875013
19.4,-2.21152307587501,0.1597330845656302,-0.425132727245682,0.2653995730185272,2.211523077160263,1.570795764828892
19.5,-2.21205053376051,0.1601276748821192,-0.4251271351810715,0.2649993906100292,2.212050535045763,1.570795764783058
19.6,-2.212574316051086,0.1605193847505575,-0.425121575962919,0.264602121496182,2.212574317336339,1.570795764737507
19.7,-2.213094466993936,0.1609082500977763,-0.425116049332928,0.2642077294918579,2.213094468279189,1.570795764692237
19.8,-2.213611030078099,0.1612943062169734,-0.4251105550349052,0.2638161790476374,2.213611031363352,1.570795764647244
19.9,-2.214124048051279,0.1616775877820658,-0.4251050928147038,0.2634274352355703,2.214124049336532,1.570795764602526
20,-2.214633562936223,0.1620581288616734,-0.4250996624203367,0.2630414637349361,2.214633564221476,1.570795764558078
20.1,-2.215139616046649,0.1624359629328183,-0.4250942636017498,0.2626582308187153,2.215139617331902,1.570795764513899
20.2,-2.215642248002744,0.1628111228941407,-0.4250888961109922,0.2622777033402599,2.215642249287996,1.570795764469985
20.3,-2.216141498746244,0.1631836410787173,-0.4250835597019886,0.2618998487204749,2.216141500031497,1.570795764426333
20.4,-2.216637407555131,0.1635535492667373,-0.4250782541307103,0.2615246349350855,2.216637408840384,1.570795764382942
20.5,-2.217130013057913,0.1639208786975814,-0.4250729791550611,0.2611520305026147,2.217130014343166,1.570795764339806
20.6,-2.217619353247543,0.1642856600817311,-0.4250677345348208,0.2607820044724178,2.217619354532796,1.570795764296925
20.7,-2.218105465494975,0.1646479236123355,-0.4250625200317586,0.2604145264130864,2.218105466780228,1.570795764254296
20.8,-2.218588386562356,0.1650076989764102,-0.4250573354094627,0.2600495664011646,2.218588387847609,1.570795764211915
20.9,-2.219068152615876,0.1653650153658646,-0.4250521804335108,0.2596870950103209,2.219068153901129,1.570795764169781
21,-2.219544799238295,0.1657199014880462,-0.4250470548712428,0.2593270833005761,2.219544800523548,1.570795764127889
21.1,-2.220018361441137,0.1660723855762001,-0.4250419584919314,0.2589695028079007,2.22001836272639,1.570795764086239
21.2,-2.220488873676576,0.1664224953995586,-0.425036891066668,0.2586143255342108,2.220488874961828,1.570795764044828
21.3,-2.220956369849017,0.1667702582731749,-0.4250318523683632,0.2582615239373638,2.22095637113427,1.570795764003652
21.4,-2.221420883326386,0.1671157010674733,-0.4250268421717465,0.2579110709216934,2.221420884611639,1.57079576396271
21.5,-2.221882446951133,0.1674588502176562,-0.4250218602534233,0.2575629398285457,2.221882448236386,1.570795763922
21.6,-2.222341093050954,0.1677997317327424,-0.4250169063918179,0.2572171044272977,2.222341094336207,1.570795763881518
21.7,-2.222796853449251,0.1681383712044635,-0.42501198036706,0.2568735389064045,2.222796854734504,1.570795763841263
21.8,-2.22324975947533,0.1684747938159319,-0.4250070819611551,0.2565322178647023,2.223249760760583,1.570795763801232
21.9,-2.223699841974343,0.1688090243500255,-0.4250022109577571,0.2561931163030806,2.223699843259596,1.570795763761423
22,-2.224147131316987,0.1691410871975734,-0.4249973671424527,0.2558562096161836,2.22414713260224,1.570795763721834
22.1,-2.224591657408964,0.169471006365427,-0.424992550302477,0.2555214735844515,2.224591658694217,1.570795763682463
22.2,-2.225033449700212,0.1697988054842199,-0.4249877602268839,0.2551888843662482,2.225033450985465,1.570795763643307
22.3,-2.225472537193905,0.1701245078160127,-0.4249829967064329,0.2548584184902722,2.225472538479158,1.570795763604364
22.4,-2.225908948455241,0.1704481362616548,-0.4249782595335887,0.254530052848196,2.225908949740494,1.570795763565633
22.5,-2.226342711620019,0.1707697133681165,-0.4249735485025781,0.2542037646872473,2.226342712905272,1.570795763527111
22.6,-2.226773854402999,0.1710892613354815,-0.4249688634093332,0.2538795316033031,2.226773855688251,1.570795763488796
22.7,-2.22720240410608,0.1714068020238244,-0.4249642040514914,0.2535573315338695,2.227202405391333,1.570795763450686
22.8,-2.227628387626266,0.1717223569600037,-0.4249595702283955,0.2532371427514875,2.227628388911519,1.570795763412779
22.9,-2.228051831463455,0.1720359473441704,-0.4249549617410935,0.2529189438569972,2.228051832748708,1.570795763375074
23,-2.228472761728036,0.1723475940561912,-0.4249503783922819,0.2526027137732569,2.228472763013289,1.570795763337568
23.1,-2.228891204148315,0.1726573176618729,-0.4249458199863057,0.2522884317388048,2.228891205433567,1.57079576330026
23.2,-2.22930718407776,0.1729651384191015,-0.4249412863292719,0.2519760773018049,2.229307185363013,1.570795763263147
23.3,-2.229720726502086,0.1732710762837826,-0.4249367772288224,0.2516656303140792,2.229720727787339,1.570795763226228
23.4,-2.230131856046168,0.1735751509155818,-0.4249322924943044,0.2513570709252519,2.230131857331421,1.5707957631895
23.5,-2.230540596980796,0.1738773816837522,-0.4249278319366567,0.251050379577066,2.230540598266049,1.570795763152963
23.6,-2.230946973229283,0.1741777876725621,-0.4249233953684666,0.2507455369978118,2.230946974514536,1.570795763116614
23.7,-2.231351008373904,0.1744763876867239,-0.4249189826039697,0.2504425241969841,2.231351009659157,1.570795763080452
23.8,-2.231752725662211,0.1747732002567375,-0.4249145934589933,0.2501413224599105,2.231752726947464,1.570795763044475
23.9,-2.232152148013184,0.1750682436439774,-0.4249102277508996,0.2498419133425784,2.232152149298437,1.570795763008681
24,-2.232549298023257,0.1753615358458376,-0.4249058852986423,0.2495442786666331,2.23254929930851,1.570795762973068
24.1,-2.232944197972202,0.1756530946005341,-0.4249015659228235,0.2492484005143751,2.232944199257455,1.570795762937635
24.2,-2.233336869828885,0.1759429373920511,-0.4248972694455802,0.2489542612239575,2.233336871114138,1.570795762902381
24.3,-2.233727335256888,0.1762310814547732,-0.424892995690584,0.2486618433846672,2.233727336542141,1.570795762867303
24.4,-2.234115615620011,0.1765175437781181,-0.4248887444830416,0.248371129832293,2.234115616905264,1.5707957628324
24.5,-2.234501731987653,0.1768023411110278,-0.4248845156496941,0.2480821036446628,2.234501733272906,1.570795762797671
24.6,-2.234885705140071,0.1770854899663732,-0.4248803090188744,0.2477947481372098,2.234885706425323,1.570795762763114
24.7,-2.235267555573523,0.177367006625218,-0.4248761244203365,0.2475090468586245,2.235267556858776,1.570795762728727
24.8,-2.235647303505305,0.1776469071410816,-0.4248719616853691,0.2472249835866762,2.235647304790557,1.570795762694508
24.9,-2.23602496887867,0.177925207343975,-0.4248678206467389,0.2469425423241489,2.236024970163923,1.570795762660458
25,-2.236400571367648,0.1782019228444938,-0.4248637011386904,0.2466617072946917,2.236400572652901,1.570795762626573
25.1,-2.236774130381757,0.1784770690377115,-0.4248596029970031,0.2463824629389819,2.23677413166701,1.570795762592852
25.2,-2.237145665070615,0.1787506611070171,-0.4248555260588773,0.2461047939108028,2.237145666355868,1.570795762559295
25.3,-2.237515194328451,0.179022714027866,-0.4248514701629347,0.2458286850733202,2.237515195613704,1.570795762525899
25.4,-2.237882736798526,0.1792932425715321,-0.4248474351492177,0.2455541214953598,2.237882738083778,1.570795762492664
25.5,-2.238248310877448,0.1795622613086323,-0.4248434208592471,0.2452810884478538,2.238248312162701,1.570795762459587
25.6,-2.238611934719413,0.1798297846126218,-0.4248394271359643,0.2450095714001748,2.238611936004665,1.570795762426668
25.7,-2.238973626240338,0.1800958266633472,-0.4248354538236754,0.2447395560168673,2.238973627525591,1.570795762393906
25.8,-2.239333403121925,0.1803604014503151,-0.4248315007680503,0.2444710281540949,2.239333404407177,1.570795762361297
25.9,-2.239691282815623,0.1806235227760453,-0.4248275678162372,0.244203973856429,2.239691284100876,1.570795762328843
26,-2.240047282546526,0.1808852042593116,-0.4248236548166915,0.2439383793535796,2.240047283831779,1.57079576229654
26.1,-2.240401419317169,0.1811454593382393,-0.4248197616192328,0.2436742310572413,2.240401420602422,1.570795762264389
26.2,-2.240753709911266,0.1814043012734885,-0.4248158880750452,0.2434115155579377,2.240753711196518,1.570795762232387
26.3,-2.241104170897356,0.18166174315121,-0.4248120340366199,0.2431502196220094,2.241104172182609,1.570795762200534
26.4,-2.241452818632387,0.1819177978860296,-0.4248081993578126,0.2428903301886862,2.241452819917639,1.570795762168828
26.5,-2.24179966926521,0.1821724782239755,-0.4248043838937861,0.2426318343670744,2.241799670550463,1.570795762137268
26.6,-2.242144738740025,0.1824257967453207,-0.424800587500954,0.2423747194333714,2.242144740025278,1.570795762105853
26.7,-2.242488042799731,0.1826777658673393,-0.4247968100371509,0.2421189728280524,2.242488044084984,1.570795762074581
26.8,-2.242829596989232,0.1829283978470642,-0.4247930513613483,0.2418645821531413,2.242829598274485,1.570795762043452
26.9,-2.24316941665866,0.183177704783958,-0.4247893113338819,0.2416115351694827,2.243169417943913,1.570795762012464
27,-2.243507516966543,0.1834256986225,-0.4247855898162811,0.2413598197941269,2.243507518251796,1.570795761981616
27.1,-2.243843912882907,0.1836723911548006,-0.4247818866713828,0.2411094240978287,2.243843914168159,1.570795761950907
27.2,-2.244178619192311,0.1839177940230456,-0.4247782017632744,0.2408603363024042,2.244178620477563,1.570795761920336
27.3,-2.244511650496832,0.1841619187220545,-0.4247745349571801,0.2406125447783438,2.244511651782084,1.570795761889901
27.4,-2.244843021218984,0.1844047766015819,-0.4247708861196315,0.2403660380423673,2.244843022504237,1.570795761859603
27.5,-2.245172745604582,0.1846463788687913,-0.4247672551183541,0.2401208047550369,2.245172746889835,1.570795761829439
27.6,-2.245500837725545,0.1848867365904709,-0.42476364182221,0.2398768337184833,2.245500839010798,1.570795761799408
27.7,-2.245827311482656,0.185125860695365,-0.4247600461013121,0.2396341138740183,2.245827312767909,1.57079576176951
27.8,-2.246152180608258,0.1853637619763902,-0.42475646782691,0.2393926342999748,2.24615218189351,1.570795761739743
27.9,-2.246475458668897,0.1856004510928528,-0.4247529068713902,0.2391523842094898,2.24647545995415,1.570795761710107
28,-2.246797159067925,0.1858359385724668,-0.4247493631083898,0.2389133529484013,2.246797160353177,1.5707957616806
28.1,-2.247117295048039,0.1860702348135987,-0.4247458364125691,0.2386755299930599,2.247117296333291,1.570795761651221
28.2,-2.247435879693783,0.1863033500872575,-0.4247423266597821,0.2384389049483104,2.247435880979036,1.57079576162197
28.3,-2.247752925933996,0.1865352945390555,-0.4247388337270195,0.2382034675455031,2.247752927219249,1.570795761592845
28.4,-2.248068446544214,0.1867660781912832,-0.4247353574923523,0.2379692076404183,2.248068447829467,1.570795761563845
28.5,-2.248382454149028,0.1869957109448137,-0.4247318978349313,0.2377361152113622,2.24838245543428,1.57079576153497
28.6,-2.248694961224396,0.1872242025809783,-0.4247284546349874,0.2375041803572628,2.248694962509649,1.570795761506219
28.7,-2.249005980099915,0.1874515627634139,-0.4247250277739454,0.2372733932958226,2.249005981385168,1.57079576147759
28.8,-2.249315522961044,0.187677801039996,-0.4247216171341961,0.2370437443615856,2.249315524246297,1.570795761449082
28.9,-2.249623601851291,0.1879029268445152,-0.4247182225992105,0.236815224004232,2.249623603136544,1.570795761420695
29,-2.249930228674357,0.1881269494984963,-0.4247148440534829,0.2365878227867597,2.24993022995961,1.570795761392428
29.1,-2.250235415196244,0.1883498782129323,-0.4247114813825874,0.2363615313837499,2.250235416481497,1.57079576136428
29.2,-2.250539173047316,0.1885717220899608,-0.4247081344731214,0.236136340579634,2.250539174332569,1.570795761336249
29.3,-2.250841513724329,0.1887924901244844,-0.4247048032127054,0.2359122412671013,2.250841515009582,1.570795761308336
29.4,-2.251142448592419,0.1890121912059044,-0.4247014874899264,0.2356892244453945,2.251142449877672,1.570795761280539
29.5,-2.251441988887061,0.1892308341196269,-0.4246981871943944,0.2354672812187175,2.251441990172314,1.570795761252857
29.6,-2.251740145715984,0.1894484275486832,-0.4246949022167428,0.2352464027946439,2.251740147001237,1.57079576122529
29.7,-2.252036930061056,0.1896649800752925,-0.424691632448571,0.235026580482554,2.252036931346309,1.570795761197836
29.8,-2.252332352780131,0.1898805001822836,-0.4246883777823882,0.234807805692185,2.252332354065384,1.570795761170495
29.9,-2.252626424608867,0.1900949962546576,-0.4246851381117835,0.2345900699320396,2.25262642589412,1.570795761143266
30,-2.252919156162512,0.1903084765810661,-0.4246819133311419,0.2343733648079365,2.252919157447764,1.570795761116149
30.1,-2.25321055793765,0.1905209493551752,-0.4246787033359283,0.2341576820216176,2.253210559222902,1.570795761089141
30.2,-2.253500640313924,0.1907324226770868,-0.4246755080225171,0.233943013369327,2.253500641599177,1.570795761062244
30.3,-2.253789413555728,0.1909429045547597,-0.4246723272881354,0.2337293507403899,2.253789414840981,1.570795761035455
30.4,-2.254076887813862,0.1911524029053737,-0.4246691610310336,0.23351668611582,2.254076889099115,1.570795761008773
30.5,-2.254363073127164,0.1913609255565518,-0.4246660091502577,0.2333050115670972,2.254363074412417,1.5707957609822
30.6,-2.254647979424115,0.1915684802478097,-0.4246628715457632,0.2330943192546613,2.254647980709368,1.570795760955732
30.7,-2.254931616524405,0.1917750746317211,-0.424659748118529,0.2328846014268322,2.254931617809658,1.57079576092937
30.8,-2.255213994140487,0.1919807162752818,-0.424656638770216,0.2326758504183886,2.25521399542574,1.570795760903114
30.9,-2.25549512187909,0.1921854126610754,-0.4246535434035081,0.2324680586493741,2.255495123164343,1.570795760876961
31,-2.255775009242712,0.1923891711884949,-0.4246504619219422,0.2322612186238757,2.255775010527965,1.570795760850912
31.1,-2.256053665631092,0.1925919991749936,-0.4246473942297939,0.2320553229288294,2.256053666916344,1.570795760824965
31.2,-2.256331100342642,0.1927939038571651,-0.4246443402323052,0.2318503642327983,2.256331101627895,1.570795760799121
31.3,-2.256607322575874,0.1929948923920222,-0.4246412998354572,0.2316463352848075,2.256607323861127,1.570795760773378
31.4,-2.256882341430781,0.1931949718579915,-0.4246382729461402,0.2314432289132924,2.256882342716034,1.570795760747735
31.5,-2.257156165910216,0.193394149256136,-0.4246352594720406,0.231241038024848,2.257156167195468,1.570795760722192
31.6,-2.257428804921227,0.1935924315112061,-0.4246322593216405,0.2310397556032342,2.25742880620648,1.570795760696749
31.7,-2.257700267276389,0.1937898254727202,-0.4246292724042178,0.2308393747082391,2.257700268561642,1.570795760671404
31.8,-2.257970561695094,0.1939863379159874,-0.424626298629903,0.2306398884746557,2.257970562980347,1.570795760646156
31.9,-2.258239696804835,0.1941819755432164,-0.4246233379095656,0.2304412901111448,2.258239698090088,1.570795760621006
32,-2.25850768114246,0.1943767449844813,-0.4246203901548711,0.2302435728992975,2.258507682427713,1.570795760595952
32.1,-2.258774523155408,0.194570652798717,-0.4246174552782804,0.2300467301925835,2.258774524440661,1.570795760570995
32.2,-2.25904023120292,0.1947637054747702,-0.424614533192937,0.2298507554154128,2.259040232488172,1.570795760546132
32.3,-2.259304813557238,0.1949559094323092,-0.4246116238128366,0.2296556420620561,2.259304814842491,1.570795760521364
32.4,-2.259568278404779,0.1951472710227904,-0.4246087270526573,0.2294613836957353,2.259568279690031,1.570795760496689
32.5,-2.259830633847283,0.1953377965303957,-0.4246058428279298,0.2292679739477705,2.259830635132536,1.570795760472108
32.6,-2.260091887902958,0.1955274921729711,-0.4246029710547532,0.229075406516472,2.260091889188211,1.57079576044762
32.7,-2.260352048507592,0.1957163641029069,-0.4246001116500793,0.2288836751663439,2.260352049792845,1.570795760423223
32.8,-2.260611123515651,0.1959044184080199,-0.4245972645315419,0.2286927737272038,2.260611124800903,1.570795760398918
32.9,-2.26086912070136,0.1960916611124901,-0.4245944296174571,0.2285026960932441,2.260869121986613,1.570795760374704
33,-2.261126047759771,0.1962780981776859,-0.4245916068269366,0.2283134362221517,2.261126049045024,1.57079576035058
33.1,-2.261381912307801,0.1964637355029595,-0.4245887960796608,0.2281249881343115,2.261381913593054,1.570795760326545
33.2,-2.261636721885268,0.1966485789265562,-0.4245859972961057,0.2279373459119256,2.261636723170521,1.5707957603026
33.3,-2.261890483955897,0.1968326342263822,-0.4245832103974294,0.2277505036981893,2.26189048524115,1.570795760278743
33.4,-2.26214320590832,0.197015907120857,-0.4245804353054154,0.2275644556965233,2.262143207193573,1.570795760254973
33.5,-2.262394895057054,0.197198403269681,-0.4245776719425294,0.2273791961697214,2.262394896342307,1.570795760231291
33.6,-2.262645558643465,0.197380128274574,-0.4245749202319189,0.2271947194391544,2.262645559928718,1.570795760207696
33.7,-2.26289520383672,0.1975610876801284,-0.424572180097357,0.2270110198840314,2.262895205121973,1.570795760184186
33.8,-2.263143837734715,0.197741286974491,-0.4245694514633556,0.2268280919407175,2.263143839019968,1.570795760160762
33.9,-2.263391467364996,0.197920731590159,-0.424566734254995,0.226645930101796,2.263391468650249,1.570795760137423
34,-2.263638099685667,0.1980994269046334,-0.424564028397981,0.2264645289154714,2.26363810097092,1.570795760114169
34.1,-2.263883741586274,0.1982773782412153,-0.4245613338187013,0.2262838829848306,2.263883742871527,1.570795760090998
34.2,-2.264128399888687,0.1984545908696873,-0.424558650444169,0.2261039869670753,2.264128401173939,1.570795760067911
34.3,-2.264372081347954,0.1986310700069964,-0.4245559782019654,0.2259248355728687,2.264372082633207,1.570795760044907
34.4,-2.26461479265316,0.1988068208179641,-0.4245533170202975,0.2257464235655959,2.264614793938413,1.570795760021985
34.5,-2.264856540428254,0.1989818484159116,-0.4245506668280541,0.2255687457607962,2.264856541713506,1.570795759999145
34.6,-2.265097331232874,0.1991561578633991,-0.4245480275546356,0.2253917970253383,2.265097332518127,1.570795759976386
34.7,-2.265337171563161,0.1993297541728225,-0.4245453991300678,0.2252155722768521,2.265337172848414,1.570795759953708
34.8,-2.265576067852548,0.1995026423070385,-0.4245427814850018,0.2250400664831034,2.265576069137801,1.57079575993111
34.9,-2.265814026472552,0.1996748271800755,-0.4245401745506001,0.2248652746612834,2.265814027757805,1.570795759908592
35,-2.266051053733544,0.1998463136576447,-0.4245375782587075,0.2246911918774401,2.266051055018797,1.570795759886153
35.1,-2.266287155885509,0.2000171065578513,-0.4245349925416235,0.224517813245825,2.266287157170762,1.570795759863793
35.2,-2.266522339118798,0.2001872106517908,-0.4245324173322729,0.2243451339282672,2.266522340404051,1.570795759841511
35.3,-2.266756609564863,0.2003566306640323,-0.4245298525641488,0.2241731491336623,2.266756610850116,1.570795759819307
35.4,-2.266989973296986,0.2005253712733577,-0.4245272981713129,0.2240018541172901,2.266989974582239,1.57079575979718
35.5,-2.267222436330994,0.2006934371132445,-0.4245247540882815,0.2238312441802464,2.267222437616247,1.570795759775129
35.6,-2.267454004625963,0.2008608327724346,-0.4245222202502532,0.2236613146689024,2.267454005911216,1.570795759753156
35.7,-2.267684684084914,0.2010275627955309,-0.4245196965928244,0.2234920609743369,2.267684685370166,1.570795759731258
35.8,-2.267914480555494,0.2011936316834806,-0.4245171830522168,0.2233234785317961,2.267914481840747,1.570795759709435
35.9,-2.268143399830654,0.2013590438942288,-0.4245146795652204,0.2231555628200681,2.268143401115907,1.570795759687688
36,-2.268371447649307,0.2015238038431164,-0.4245121860690233,0.2229883093610567,2.268371448934559,1.570795759666014
36.1,-2.268598629696986,0.2016879159035057,-0.424509702501382,0.2228217137191564,2.268598630982239,1.570795759644415
36.2,-2.268824951606487,0.2018513844072629,-0.4245072288006213,0.2226557715007971,2.26882495289174,1.57079575962289
36.3,-2.269050418958502,0.2020142136452705,-0.4245047649055209,0.2224904783539046,2.269050420243755,1.570795759601437
36.4,-2.269275037282246,0.2021764078679382,-0.424502310755372,0.2223258299673319,2.269275038567498,1.570795759580058
36.5,-2.269498812056068,0.2023379712856297,-0.4244998662899206,0.2221618220705182,2.269498813341321,1.570795759558751
36.6,-2.269721748708066,0.2024989080692308,-0.424497431449538,0.2219984504328636,2.269721749993319,1.570795759537515
36.7,-2.269943852616677,0.2026592223506327,-0.4244950061749364,0.2218357108632176,2.26994385390193,1.570795759516351
36.8,-2.270165129111271,0.2028189182231301,-0.4244925904073398,0.2216735992095664,2.270165130396523,1.570795759495258
36.9,-2.270385583472728,0.202977999741961,-0.4244901840885404,0.2215121113583791,2.270385584757981,1.570795759474235
37,-2.270605220934014,0.2031364709247327,-0.4244877871607287,0.2213512432342952,2.270605222219267,1.570795759453282
37.1,-2.270824046680742,0.2032943357518207,-0.4244853995665494,0.2211909907995846,2.270824047965995,1.570795759432399
37.2,-2.271042065851728,0.2034515981669358,-0.4244830212491593,0.2210313500536927,2.27104206713698,1.570795759411586
37.3,-2.271259283539538,0.2036082620774664,-0.4244806521521696,0.2208723170328142,2.271259284824791,1.570795759390841
37.4,-2.271475704791031,0.203764331354904,-0.4244782922196464,0.2207138878095236,2.271475706076284,1.570795759370165
37.5,-2.271691334607888,0.2039198098353552,-0.4244759413960537,0.2205560584922068,2.271691335893141,1.570795759349557
37.6,-2.271906177947137,0.2040747013198541,-0.4244735996263671,0.2203988252247484,2.27190617923239,1.570795759329016
37.7,-2.27212023972167,0.204229009574874,-0.42447126685596,0.2202421841861053,2.272120241006923,1.570795759308544
37.8,-2.272333524800753,0.204382738332697,-0.4244689430307176,0.2200861315898521,2.272333526086006,1.570795759288137
37.9,-2.272546038010528,0.204535891291755,-0.4244666280968659,0.2199306636838116,2.272546039295781,1.570795759267798
38,-2.272757784134509,0.2046884721171125,-0.4244643220010857,0.2197757767496,2.272757785419762,1.570795759247524
38.1,-2.272968767914069,0.2048404844408083,-0.4244620246905129,0.2196214671022858,2.272968769199322,1.570795759227316
38.2,-2.273178994048924,0.2049919318622813,-0.4244597361127376,0.219467731089992,2.273178995334177,1.570795759207174
38.3,-2.273388467197603,0.2051428179487118,-0.4244574562156345,0.219314565093498,2.273388468482855,1.570795759187097
38.40000000000001,-2.27359719197792,0.2052931462353911,-0.4244551849476466,0.2191619655258989,2.273597193263173,1.570795759167084
38.5,-2.273805172967435,0.205442920226119,-0.4244529222575579,0.2190099288321505,2.273805174252688,1.570795759147136
38.6,-2.274012414703907,0.2055921433935453,-0.4244506680944937,0.2188584514888419,2.274012415989159,1.570795759127251
38.7,-2.274218921685744,0.2057408191795105,-0.4244484224080907,0.2187075300036554,2.274218922970997,1.57079575910743
38.8,-2.274424698372448,0.2058889509954724,-0.4244461851483265,0.2185571609151395,2.274424699657701,1.570795759087672
38.90000000000001,-2.274629749185046,0.2060365422227903,-0.4244439562655771,0.2184073407923393,2.274629750470299,1.570795759067977
39,-2.274834078506526,0.2061835962130658,-0.4244417357106158,0.2182580662344265,2.274834079791778,1.570795759048345
39.1,-2.275037690682255,0.2063301162884841,-0.4244395234346143,0.2181093338703306,2.275037691967508,1.570795759028774
39.2,-2.275240590020406,0.2064761057421833,-0.4244373193890851,0.2179611403584829,2.275240591305658,1.570795759009266
39.3,-2.275442780792362,0.2066215678385674,-0.4244351235259956,0.21781348238639,2.275442782077615,1.570795758989818
39.40000000000001,-2.275644267233133,0.2067665058136186,-0.4244329357975971,0.217666356670378,2.275644268518386,1.570795758970432
39.5,-2.275845053541747,0.2069109228752097,-0.4244307561565392,0.2175197599552234,2.275845054827,1.570795758951107
39.6,-2.276045143881655,0.2070548222034461,-0.4244285845559261,0.2173736890138684,2.276045145166908,1.570795758931842
39.7,-2.276244542381118,0.2071982069509488,-0.4244264209490893,0.2172281406470802,2.276244543666371,1.570795758912637
39.8,-2.276443253133594,0.2073410802431965,-0.4244242652898151,0.217083111683138,2.276443254418846,1.570795758893492
39.90000000000001,-2.276641280198116,0.2074834451787808,-0.4244221175322309,0.2169385989775776,2.276641281483369,1.570795758874406
40,-2.276838627599672,0.2076253048297474,-0.4244199776308051,0.2167945994128218,2.276838628884925,1.570795758855379
40.1,-2.277035299329571,0.2077666622418803,-0.4244178455402903,0.2166511098978958,2.277035300614824,1.570795758836411
40.2,-2.27723129934581,0.2079075204349863,-0.4244157212159507,0.2165081273681722,2.277231300631063,1.570795758817502
40.3,-2.277426631573436,0.2080478824031502,-0.424413604613278,0.2163656487850858,2.277426632858689,1.57079575879865
40.40000000000001,-2.277621299904898,0.2081877511150765,-0.4244114956881049,0.2162236711357934,2.27762130119015,1.570795758779857
40.5,-2.277815308200402,0.2083271295143447,-0.4244093943966618,0.2160821914329176,2.277815309485654,1.570795758761121
40.6,-2.278008660288255,0.2084660205196656,-0.4244073006954636,0.2159412067142625,2.278008661573507,1.570795758742442
40.7,-2.278201359965207,0.2086044270251648,-0.4244052145413661,0.2158007140425582,2.278201361250459,1.57079575872382
40.8,-2.278393410996789,0.2087423519006393,-0.4244031358915663,0.2156607105052046,2.278393412282042,1.570795758705254
40.90000000000001,-2.278584817117649,0.2088797979918979,-0.4244010647035452,0.2155211932139025,2.278584818402901,1.570795758686745
41,-2.27877558203187,0.2090167681208754,-0.4243990009351819,0.2153821593045677,2.278775583317123,1.570795758668292
41.1,-2.278965709413309,0.2091532650860302,-0.4243969445446396,0.2152436059369052,2.278965710698562,1.570795758649894
41.2,-2.279155202905904,0.2092892916625146,-0.4243948954903658,0.2151055302942098,2.279155204191157,1.570795758631552
41.3,-2.279344066123997,0.2094248506024883,-0.4243928537312058,0.2149679295831675,2.27934406740925,1.570795758613265
41.40000000000001,-2.279532302652646,0.2095599446352594,-0.4243908192261756,0.2148308010335143,2.279532303937899,1.570795758595033
41.5,-2.279719916047926,0.2096945764676548,-0.4243887919347458,0.2146941418978372,2.279719917333179,1.570795758576855
41.6,-2.279906909837242,0.2098287487841901,-0.4243867718166143,0.214557949451347,2.279906911122495,1.570795758558731
41.7,-2.280093287519622,0.2099624642473259,-0.4243847588317635,0.2144222209915938,2.280093288804875,1.570795758540661
41.8,-2.280279052566015,0.2100957254976947,-0.4243827529405735,0.2142869538382968,2.280279053851268,1.570795758522645
41.90000000000001,-2.280464208419584,0.2102285351543003,-0.4243807541035949,0.2141521453330029,2.280464209704837,1.570795758504683
42,-2.280648758495993,0.21036089581483,-0.4243787622817194,0.2140177928389733,2.280648759781246,1.570795758486773
42.1,-2.280832706183695,0.210492810055797,-0.42437677743618,0.2138838937408423,2.280832707468948,1.570795758468916
42.2,-2.281016054844207,0.2106242804327962,-0.4243747995284934,0.213750445444532,2.28101605612946,1.570795758451112
42.3,-2.281198807812394,0.2107553094807599,-0.4243728285204043,0.2136174453768831,2.281198809097647,1.57079575843336
42.40000000000001,-2.281380968396739,0.2108858997140999,-0.424370864373941,0.2134848909855407,2.281380969681992,1.57079575841566
42.5,-2.281562539879616,0.2110160536269632,-0.4243689070514733,0.2133527797386705,2.281562541164869,1.570795758398011
42.6,-2.281743525517555,0.2111457736934881,-0.4243669565155983,0.2132211091247882,2.281743526802808,1.570795758380414
42.7,-2.281923928541508,0.2112750623678892,-0.4243650127291971,0.2130898766525036,2.28192392982676,1.570795758362868
42.8,-2.282103752157107,0.2114039220847985,-0.4243630756554353,0.2129590798504069,2.28210375344236,1.570795758345374
42.90000000000001,-2.282282999544925,0.2115323552593793,-0.4243611452577056,0.2128287162667561,2.282283000830177,1.570795758327929
43,-2.282461673860726,0.2116603642875532,-0.424359221499742,0.2126987834692784,2.282461675145979,1.570795758310535
43.1,-2.28263977823572,0.2117879515462278,-0.4243573043455626,0.2125692790450842,2.282639779520973,1.570795758293192
43.2,-2.282817315776804,0.2119151193934385,-0.424355393759356,0.212440200600355,2.282817317062057,1.570795758275898
43.3,-2.282994289566815,0.2120418701686049,-0.4243534897055952,0.2123115457601727,2.282994290852068,1.570795758258654
43.40000000000001,-2.283170702664767,0.2121682061926435,-0.4243515921490371,0.212183312168321,2.28317070395002,1.570795758241459
43.5,-2.283346558106091,0.2122941297682246,-0.424349701054723,0.2120554974871993,2.283346559391343,1.570795758224313
43.6,-2.283521858902867,0.2124196431799135,-0.4243478163878649,0.2119280993974826,2.28352186018812,1.570795758207217
43.7,-2.283696608044064,0.2125447486943983,-0.4243459381139587,0.2118011155979787,2.283696609329317,1.570795758190169
43.8,-2.283870808495766,0.2126694485606038,-0.4243440661988416,0.2116745438055148,2.283870809781019,1.570795758173169
43.90000000000001,-2.284044463201397,0.2127937450099751,-0.4243422006084643,0.2115483817546817,2.284044464486649,1.570795758156217
44,-2.284217575081948,0.2129176402565349,-0.4243403413091187,0.2114226271976634,2.284217576367201,1.570795758139314
44.1,-2.284390147036201,0.2130411364971678,-0.4243384882672672,0.2112972779041513,2.284390148321454,1.570795758122458
44.2,-2.284562181940943,0.2131642359116768,-0.4243366414496563,0.2111723316610039,2.284562183226196,1.570795758105649
44.3,-2.284733682651185,0.2132869406630675,-0.4243348008232601,0.2110477862722462,2.284733683936438,1.570795758088888
44.40000000000001,-2.284904652000376,0.2134092528976623,-0.42433296635528,0.2109236395587573,2.284904653285629,1.570795758072173
44.5,-2.285075092800616,0.213531174745242,-0.4243311380132013,0.2107998893581566,2.285075094085869,1.570795758055506
44.6,-2.285245007842858,0.2136527083192732,-0.4243293157646804,0.2106765335246905,2.28524500912811,1.570795758038884
44.7,-2.28541439989712,0.2137738557169939,-0.4243274995776005,0.2105535699290328,2.285414401182373,1.57079575802231
44.8,-2.28558327171269,0.2138946190196691,-0.4243256894201295,0.210430996458058,2.285583272997942,1.570795758005781
44.90000000000001,-2.28575162601832,0.2140150002926475,-0.4243238852606055,0.2103088110147553,2.285751627303573,1.570795757989298
45,-2.285919465522432,0.2141350015856176,-0.424322087067651,0.2101870115180304,2.285919466807684,1.57079575797286
45.1,-2.286086792913309,0.2142546249326358,-0.4243202948100588,0.2100655959026483,2.286086794198562,1.570795757956468
45.2,-2.286253610859295,0.2143738723524393,-0.4243185084568495,0.209944562118892,2.286253612144548,1.570795757940121
45.3,-2.286419922008981,0.214492745848446,-0.4243167279772706,0.2098239081325914,2.286419923294233,1.570795757923819
45.40000000000001,-2.286585728991397,0.2146112474090387,-0.4243149533407973,0.2097036319248389,2.28658573027665,1.570795757907562
45.5,-2.286751034416201,0.2147293790075651,-0.4243131845170751,0.2095837314919606,2.286751035701454,1.570795757891349
45.6,-2.286915840873861,0.2148471426025935,-0.424311421476034,0.2094642048452613,2.286915842159114,1.570795757875181
45.7,-2.28708015093584,0.2149645401380553,-0.4243096641877742,0.2093450500109384,2.287080152221093,1.570795757859056
45.8,-2.287243967154776,0.2150815735433298,-0.4243079126225666,0.2092262650299119,2.287243968440029,1.570795757842976
45.90000000000001,-2.287407292064662,0.2151982447333864,-0.4243061667509664,0.2091078479577106,2.287407293349915,1.570795757826939
46,-2.287570128181018,0.2153145556089839,-0.4243044265436993,0.2089897968643299,2.287570129466271,1.570795757810945
46.1,-2.287732478001073,0.2154305080567838,-0.4243026919717181,0.2088721098340613,2.287732479286326,1.570795757794995
46.2,-2.287894344003932,0.2155461039494355,-0.4243009630060897,0.2087547849653504,2.287894345289184,1.570795757779088
46.3,-2.288055728650747,0.2156613451457474,-0.4242992396181648,0.2086378203706829,2.288055729936,1.570795757763224
46.40000000000001,-2.288216634384889,0.2157762334908568,-0.4242975217794651,0.2085212141764998,2.288216635670142,1.570795757747402
46.5,-2.28837706363211,0.2158907708162872,-0.4242958094617393,0.2084049645229697,2.288377064917363,1.570795757731623
46.6,-2.288537018800711,0.2160049589401467,-0.4242941026369067,0.2082890695639321,2.288537020085964,1.570795757715886
46.7,-2.288696502281703,0.2161187996671856,-0.4242924012770573,0.2081735274667267,2.288696503566956,1.570795757700191
46.8,-2.28885551644897,0.2162322947889947,-0.4242907053545082,0.2080583364120798,2.288855517734223,1.570795757684537
46.90000000000001,-2.289014063659425,0.216345446084091,-0.4242890148417473,0.2079434945939624,2.289014064944678,1.570795757668926
47,-2.28917214625317,0.216458255318031,-0.4242873297114897,0.2078290002195331,2.289172147538423,1.570795757653356
47.1,-2.289329766553651,0.2165707242435531,-0.4242856499365644,0.2077148515088822,2.289329767838903,1.570795757637827
47.2,-2.289486926867809,0.2166828546006627,-0.4242839754900274,0.2076010466950606,2.289486928153061,1.570795757622339
47.3,-2.289643629486236,0.2167946481168315,-0.4242823063451624,0.2074875840238519,2.289643630771489,1.570795757606892
47.40000000000001,-2.289799876683324,0.2169061065070252,-0.4242806424753667,0.2073744617537159,2.289799877968576,1.570795757591486
47.5,-2.28995567071741,0.217017231473875,-0.424278983854208,0.2072616781555894,2.289955672002663,1.57079575757612
47.6,-2.290111013830931,0.2171280247077902,-0.4242773304554817,0.2071492315128864,2.290111015116183,1.570795757560794
47.7,-2.290265908250558,0.2172384878870162,-0.4242756822531533,0.2070371201212708,2.29026590953581,1.570795757545509
47.8,-2.290420356187351,0.2173486226778323,-0.4242740392213591,0.2069253422886277,2.290420357472603,1.570795757530264
47.90000000000001,-2.290574359836893,0.2174584307346095,-0.4242724013344059,0.2068138963348645,2.290574361122145,1.570795757515058
48,-2.290727921379432,0.2175679136999236,-0.424270768566771,0.2067027805919395,2.290727922664685,1.570795757499892
48.1,-2.290881042980025,0.2176770732046407,-0.4242691408931023,0.2065919934035776,2.290881044265278,1.570795757484765
48.2,-2.291033726788669,0.2177859108681162,-0.4242675182882181,0.2064815331252987,2.291033728073921,1.570795757469677
48.3,-2.291185974940437,0.2178944282981945,-0.4242659007271641,0.2063713981242188,2.291185976225689,1.570795757454629
48.40000000000001,-2.291337789555617,0.2180026270913515,-0.4242642881850429,0.2062615867790214,2.291337790840869,1.570795757439619
48.5,-2.291489172739841,0.2181105088328366,-0.4242626806371845,0.2061520974797872,2.291489174025094,1.570795757424648
48.6,-2.29164012658422,0.2182180750967575,-0.4242610780590894,0.2060429286279089,2.291640127869472,1.570795757409715
48.7,-2.291790653165467,0.2183253274461094,-0.4242594804263717,0.2059340786360337,2.291790654450719,1.570795757394821
48.8,-2.291940754546033,0.2184322674329735,-0.424257887714873,0.2058255459278655,2.291940755831285,1.570795757379965
48.90000000000001,-2.292090432774229,0.2185388965985737,-0.4242562999006054,0.2057173289381922,2.292090434059482,1.570795757365147
49,-2.292239689884356,0.2186452164733623,-0.4242547169596378,0.2056094261126873,2.292239691169608,1.570795757350366
49.1,-2.292388527896824,0.2187512285771618,-0.4242531388682664,0.2055018359077962,2.292388529182076,1.570795757335624
49.2,-2.292536948818278,0.2188569344191933,-0.424251565603015,0.2053945567907647,2.292536950103531,1.570795757320918
49.3,-2.292684954641723,0.2189623354982757,-0.4242499971404072,0.2052875872393827,2.292684955926975,1.57079575730625
49.40000000000001,-2.292832547346634,0.2190674333027687,-0.4242484334572509,0.2051809257420416,2.292832548631886,1.57079575729162
49.5,-2.292979728899088,0.2191722293108285,-0.4242468745304109,0.2050745707975068,2.29297973018434,1.570795757277026
49.6,-2.293126501251871,0.2192767249903511,-0.4242453203369791,0.2049685209149175,2.293126502537123,1.570795757262469
49.7,-2.2932728663446,0.2193809217991998,-0.4242437708541047,0.2048627746136162,2.293272867629853,1.570795757247948
49.8,-2.293418826103838,0.2194848211851763,-0.4242422260592207,0.2047573304231776,2.293418827389091,1.570795757233464
49.90000000000001,-2.293564382443205,0.2195884245861919,-0.4242406859298171,0.2046521868832087,2.293564383728457,1.570795757219017
50,-2.293709537263493,0.2196917334303237,-0.4242391504435545,0.2045473425432647,2.293709538548745,1.570795757204605
